(Generated by PartKam Version 0.05)

G20 G90 G40

(Outlines)
G0 Z0.25
T0 M6
G17
M3
G0 X16.5187 Y0.3937
G1 Z-0.05 F30
G1 X16.5187 Y0.6437 F25
G1 X16.5187 Y5.3937
G1 X16.5187 Y5.6437
G1 X16.5187 Y10.3937
G1 X16.5187 Y10.6437
G1 X16.5187 Y15.3937
G1 X16.5187 Y15.6437
G1 X16.5187 Y20.3937
G1 X16.5187 Y20.6437
G1 X16.5187 Y25.3937
G1 X16.5187 Y25.6437
G1 X16.5187 Y27.3937
G3 X16.3937 Y27.5187 I-0.125 J0
G1 X13.5901 Y27.5187
G1 X13.3401 Y27.5187
G1 X8.5901 Y27.5187
G1 X8.3401 Y27.5187
G1 X3.5901 Y27.5187
G1 X3.3401 Y27.5187
G1 X0.3937 Y27.5187
G3 X0.2687 Y27.3937 I0 J-0.125
G1 X0.2687 Y25.7864
G1 X0.2687 Y25.5364
G1 X0.2687 Y20.7864
G1 X0.2687 Y20.5364
G1 X0.2687 Y15.7864
G1 X0.2687 Y15.5364
G1 X0.2687 Y10.7864
G1 X0.2687 Y10.5364
G1 X0.2687 Y5.7864
G1 X0.2687 Y5.5364
G1 X0.2687 Y0.7864
G1 X0.2687 Y0.5364
G1 X0.2687 Y0.3937
G3 X0.3937 Y0.2687 I0.125 J0
G1 X4.8047 Y0.2687
G1 X5.0547 Y0.2687
G1 X9.8047 Y0.2687
G1 X10.0547 Y0.2687
G1 X16.3937 Y0.2687
G3 X16.5187 Y0.3937 I0 J0.125
G1 Z-0.1 F30
G1 X16.5187 Y0.6437 F25
G1 X16.5187 Y5.3937
G1 X16.5187 Y5.6437
G1 X16.5187 Y10.3937
G1 X16.5187 Y10.6437
G1 X16.5187 Y15.3937
G1 X16.5187 Y15.6437
G1 X16.5187 Y20.3937
G1 X16.5187 Y20.6437
G1 X16.5187 Y25.3937
G1 X16.5187 Y25.6437
G1 X16.5187 Y27.3937
G3 X16.3937 Y27.5187 I-0.125 J0
G1 X13.5901 Y27.5187
G1 X13.3401 Y27.5187
G1 X8.5901 Y27.5187
G1 X8.3401 Y27.5187
G1 X3.5901 Y27.5187
G1 X3.3401 Y27.5187
G1 X0.3937 Y27.5187
G3 X0.2687 Y27.3937 I0 J-0.125
G1 X0.2687 Y25.7864
G1 X0.2687 Y25.5364
G1 X0.2687 Y20.7864
G1 X0.2687 Y20.5364
G1 X0.2687 Y15.7864
G1 X0.2687 Y15.5364
G1 X0.2687 Y10.7864
G1 X0.2687 Y10.5364
G1 X0.2687 Y5.7864
G1 X0.2687 Y5.5364
G1 X0.2687 Y0.7864
G1 X0.2687 Y0.5364
G1 X0.2687 Y0.3937
G3 X0.3937 Y0.2687 I0.125 J0
G1 X4.8047 Y0.2687
G1 X5.0547 Y0.2687
G1 X9.8047 Y0.2687
G1 X10.0547 Y0.2687
G1 X16.3937 Y0.2687
G3 X16.5187 Y0.3937 I0 J0.125
G1 Z-0.15 F30
G1 X16.5187 Y0.6437 F25
G1 X16.5187 Y5.3937
G1 X16.5187 Y5.6437
G1 X16.5187 Y10.3937
G1 X16.5187 Y10.6437
G1 X16.5187 Y15.3937
G1 X16.5187 Y15.6437
G1 X16.5187 Y20.3937
G1 X16.5187 Y20.6437
G1 X16.5187 Y25.3937
G1 X16.5187 Y25.6437
G1 X16.5187 Y27.3937
G3 X16.3937 Y27.5187 I-0.125 J0
G1 X13.5901 Y27.5187
G1 X13.3401 Y27.5187
G1 X8.5901 Y27.5187
G1 X8.3401 Y27.5187
G1 X3.5901 Y27.5187
G1 X3.3401 Y27.5187
G1 X0.3937 Y27.5187
G3 X0.2687 Y27.3937 I0 J-0.125
G1 X0.2687 Y25.7864
G1 X0.2687 Y25.5364
G1 X0.2687 Y20.7864
G1 X0.2687 Y20.5364
G1 X0.2687 Y15.7864
G1 X0.2687 Y15.5364
G1 X0.2687 Y10.7864
G1 X0.2687 Y10.5364
G1 X0.2687 Y5.7864
G1 X0.2687 Y5.5364
G1 X0.2687 Y0.7864
G1 X0.2687 Y0.5364
G1 X0.2687 Y0.3937
G3 X0.3937 Y0.2687 I0.125 J0
G1 X4.8047 Y0.2687
G1 X5.0547 Y0.2687
G1 X9.8047 Y0.2687
G1 X10.0547 Y0.2687
G1 X16.3937 Y0.2687
G3 X16.5187 Y0.3937 I0 J0.125
G1 Z-0.2 F30
G1 X16.5187 Y0.6437 F25
G1 X16.5187 Y5.3937
G1 X16.5187 Y5.6437
G1 X16.5187 Y10.3937
G1 X16.5187 Y10.6437
G1 X16.5187 Y15.3937
G1 X16.5187 Y15.6437
G1 X16.5187 Y20.3937
G1 X16.5187 Y20.6437
G1 X16.5187 Y25.3937
G1 X16.5187 Y25.6437
G1 X16.5187 Y27.3937
G3 X16.3937 Y27.5187 I-0.125 J0
G1 X13.5901 Y27.5187
G1 X13.3401 Y27.5187
G1 X8.5901 Y27.5187
G1 X8.3401 Y27.5187
G1 X3.5901 Y27.5187
G1 X3.3401 Y27.5187
G1 X0.3937 Y27.5187
G3 X0.2687 Y27.3937 I0 J-0.125
G1 X0.2687 Y25.7864
G1 X0.2687 Y25.5364
G1 X0.2687 Y20.7864
G1 X0.2687 Y20.5364
G1 X0.2687 Y15.7864
G1 X0.2687 Y15.5364
G1 X0.2687 Y10.7864
G1 X0.2687 Y10.5364
G1 X0.2687 Y5.7864
G1 X0.2687 Y5.5364
G1 X0.2687 Y0.7864
G1 X0.2687 Y0.5364
G1 X0.2687 Y0.3937
G3 X0.3937 Y0.2687 I0.125 J0
G1 X4.8047 Y0.2687
G1 X5.0547 Y0.2687
G1 X9.8047 Y0.2687
G1 X10.0547 Y0.2687
G1 X16.3937 Y0.2687
G3 X16.5187 Y0.3937 I0 J0.125
G1 Z-0.25 F30
G1 X16.5187 Y0.6437 F25
G1 X16.5187 Y5.3937
G1 X16.5187 Y5.6437
G1 X16.5187 Y10.3937
G1 X16.5187 Y10.6437
G1 X16.5187 Y15.3937
G1 X16.5187 Y15.6437
G1 X16.5187 Y20.3937
G1 X16.5187 Y20.6437
G1 X16.5187 Y25.3937
G1 X16.5187 Y25.6437
G1 X16.5187 Y27.3937
G3 X16.3937 Y27.5187 I-0.125 J0
G1 X13.5901 Y27.5187
G1 X13.3401 Y27.5187
G1 X8.5901 Y27.5187
G1 X8.3401 Y27.5187
G1 X3.5901 Y27.5187
G1 X3.3401 Y27.5187
G1 X0.3937 Y27.5187
G3 X0.2687 Y27.3937 I0 J-0.125
G1 X0.2687 Y25.7864
G1 X0.2687 Y25.5364
G1 X0.2687 Y20.7864
G1 X0.2687 Y20.5364
G1 X0.2687 Y15.7864
G1 X0.2687 Y15.5364
G1 X0.2687 Y10.7864
G1 X0.2687 Y10.5364
G1 X0.2687 Y5.7864
G1 X0.2687 Y5.5364
G1 X0.2687 Y0.7864
G1 X0.2687 Y0.5364
G1 X0.2687 Y0.3937
G3 X0.3937 Y0.2687 I0.125 J0
G1 X4.8047 Y0.2687
G1 X5.0547 Y0.2687
G1 X9.8047 Y0.2687
G1 X10.0547 Y0.2687
G1 X16.3937 Y0.2687
G3 X16.5187 Y0.3937 I0 J0.125
G1 Z-0.3 F30
G1 X16.5187 Y0.6437 F25
G1 X16.5187 Y5.3937
G1 X16.5187 Y5.6437
G1 X16.5187 Y10.3937
G1 X16.5187 Y10.6437
G1 X16.5187 Y15.3937
G1 X16.5187 Y15.6437
G1 X16.5187 Y20.3937
G1 X16.5187 Y20.6437
G1 X16.5187 Y25.3937
G1 X16.5187 Y25.6437
G1 X16.5187 Y27.3937
G3 X16.3937 Y27.5187 I-0.125 J0
G1 X13.5901 Y27.5187
G1 X13.3401 Y27.5187
G1 X8.5901 Y27.5187
G1 X8.3401 Y27.5187
G1 X3.5901 Y27.5187
G1 X3.3401 Y27.5187
G1 X0.3937 Y27.5187
G3 X0.2687 Y27.3937 I0 J-0.125
G1 X0.2687 Y25.7864
G1 X0.2687 Y25.5364
G1 X0.2687 Y20.7864
G1 X0.2687 Y20.5364
G1 X0.2687 Y15.7864
G1 X0.2687 Y15.5364
G1 X0.2687 Y10.7864
G1 X0.2687 Y10.5364
G1 X0.2687 Y5.7864
G1 X0.2687 Y5.5364
G1 X0.2687 Y0.7864
G1 X0.2687 Y0.5364
G1 X0.2687 Y0.3937
G3 X0.3937 Y0.2687 I0.125 J0
G1 X4.8047 Y0.2687
G1 X5.0547 Y0.2687
G1 X9.8047 Y0.2687
G1 X10.0547 Y0.2687
G1 X16.3937 Y0.2687
G3 X16.5187 Y0.3937 I0 J0.125
G1 Z-0.35 F30
G1 X16.5187 Y0.6437 F25
G1 X16.5187 Y5.3937
G1 X16.5187 Y5.6437
G1 X16.5187 Y10.3937
G1 X16.5187 Y10.6437
G1 X16.5187 Y15.3937
G1 X16.5187 Y15.6437
G1 X16.5187 Y20.3937
G1 X16.5187 Y20.6437
G1 X16.5187 Y25.3937
G1 X16.5187 Y25.6437
G1 X16.5187 Y27.3937
G3 X16.3937 Y27.5187 I-0.125 J0
G1 X13.5901 Y27.5187
G1 X13.3401 Y27.5187
G1 X8.5901 Y27.5187
G1 X8.3401 Y27.5187
G1 X3.5901 Y27.5187
G1 X3.3401 Y27.5187
G1 X0.3937 Y27.5187
G3 X0.2687 Y27.3937 I0 J-0.125
G1 X0.2687 Y25.7864
G1 X0.2687 Y25.5364
G1 X0.2687 Y20.7864
G1 X0.2687 Y20.5364
G1 X0.2687 Y15.7864
G1 X0.2687 Y15.5364
G1 X0.2687 Y10.7864
G1 X0.2687 Y10.5364
G1 X0.2687 Y5.7864
G1 X0.2687 Y5.5364
G1 X0.2687 Y0.7864
G1 X0.2687 Y0.5364
G1 X0.2687 Y0.3937
G3 X0.3937 Y0.2687 I0.125 J0
G1 X4.8047 Y0.2687
G1 X5.0547 Y0.2687
G1 X9.8047 Y0.2687
G1 X10.0547 Y0.2687
G1 X16.3937 Y0.2687
G3 X16.5187 Y0.3937 I0 J0.125
G1 Z-0.4 F30
G1 X16.5187 Y0.6437 F25
G1 X16.5187 Y5.3937
G1 X16.5187 Y5.6437
G1 X16.5187 Y10.3937
G1 X16.5187 Y10.6437
G1 X16.5187 Y15.3937
G1 X16.5187 Y15.6437
G1 X16.5187 Y20.3937
G1 X16.5187 Y20.6437
G1 X16.5187 Y25.3937
G1 X16.5187 Y25.6437
G1 X16.5187 Y27.3937
G3 X16.3937 Y27.5187 I-0.125 J0
G1 X13.5901 Y27.5187
G1 X13.3401 Y27.5187
G1 X8.5901 Y27.5187
G1 X8.3401 Y27.5187
G1 X3.5901 Y27.5187
G1 X3.3401 Y27.5187
G1 X0.3937 Y27.5187
G3 X0.2687 Y27.3937 I0 J-0.125
G1 X0.2687 Y25.7864
G1 X0.2687 Y25.5364
G1 X0.2687 Y20.7864
G1 X0.2687 Y20.5364
G1 X0.2687 Y15.7864
G1 X0.2687 Y15.5364
G1 X0.2687 Y10.7864
G1 X0.2687 Y10.5364
G1 X0.2687 Y5.7864
G1 X0.2687 Y5.5364
G1 X0.2687 Y0.7864
G1 X0.2687 Y0.5364
G1 X0.2687 Y0.3937
G3 X0.3937 Y0.2687 I0.125 J0
G1 X4.8047 Y0.2687
G1 X5.0547 Y0.2687
G1 X9.8047 Y0.2687
G1 X10.0547 Y0.2687
G1 X16.3937 Y0.2687
G3 X16.5187 Y0.3937 I0 J0.125
G1 Z-0.45 F30
G1 X16.5187 Y0.6437 F25
G1 X16.5187 Y5.3937
G1 X16.5187 Y5.6437
G1 X16.5187 Y10.3937
G1 X16.5187 Y10.6437
G1 X16.5187 Y15.3937
G1 X16.5187 Y15.6437
G1 X16.5187 Y20.3937
G1 X16.5187 Y20.6437
G1 X16.5187 Y25.3937
G1 X16.5187 Y25.6437
G1 X16.5187 Y27.3937
G3 X16.3937 Y27.5187 I-0.125 J0
G1 X13.5901 Y27.5187
G1 X13.3401 Y27.5187
G1 X8.5901 Y27.5187
G1 X8.3401 Y27.5187
G1 X3.5901 Y27.5187
G1 X3.3401 Y27.5187
G1 X0.3937 Y27.5187
G3 X0.2687 Y27.3937 I0 J-0.125
G1 X0.2687 Y25.7864
G1 X0.2687 Y25.5364
G1 X0.2687 Y20.7864
G1 X0.2687 Y20.5364
G1 X0.2687 Y15.7864
G1 X0.2687 Y15.5364
G1 X0.2687 Y10.7864
G1 X0.2687 Y10.5364
G1 X0.2687 Y5.7864
G1 X0.2687 Y5.5364
G1 X0.2687 Y0.7864
G1 X0.2687 Y0.5364
G1 X0.2687 Y0.3937
G3 X0.3937 Y0.2687 I0.125 J0
G1 X4.8047 Y0.2687
G1 X5.0547 Y0.2687
G1 X9.8047 Y0.2687
G1 X10.0547 Y0.2687
G1 X16.3937 Y0.2687
G3 X16.5187 Y0.3937 I0 J0.125
G1 Z-0.5 F30
G1 X16.5187 Y0.6437 F25
G1 X16.5187 Y5.3937
G1 X16.5187 Y5.6437
G1 X16.5187 Y10.3937
G1 X16.5187 Y10.6437
G1 X16.5187 Y15.3937
G1 X16.5187 Y15.6437
G1 X16.5187 Y20.3937
G1 X16.5187 Y20.6437
G1 X16.5187 Y25.3937
G1 X16.5187 Y25.6437
G1 X16.5187 Y27.3937
G3 X16.3937 Y27.5187 I-0.125 J0
G1 X13.5901 Y27.5187
G1 X13.3401 Y27.5187
G1 X8.5901 Y27.5187
G1 X8.3401 Y27.5187
G1 X3.5901 Y27.5187
G1 X3.3401 Y27.5187
G1 X0.3937 Y27.5187
G3 X0.2687 Y27.3937 I0 J-0.125
G1 X0.2687 Y25.7864
G1 X0.2687 Y25.5364
G1 X0.2687 Y20.7864
G1 X0.2687 Y20.5364
G1 X0.2687 Y15.7864
G1 X0.2687 Y15.5364
G1 X0.2687 Y10.7864
G1 X0.2687 Y10.5364
G1 X0.2687 Y5.7864
G1 X0.2687 Y5.5364
G1 X0.2687 Y0.7864
G1 X0.2687 Y0.5364
G1 X0.2687 Y0.3937
G3 X0.3937 Y0.2687 I0.125 J0
G1 X4.8047 Y0.2687
G1 X5.0547 Y0.2687
G1 X9.8047 Y0.2687
G1 X10.0547 Y0.2687
G1 X16.3937 Y0.2687
G3 X16.5187 Y0.3937 I0 J0.125
G1 Z-0.55 F30
G1 Z-0.5 F30
G1 X16.5187 Y0.6437 F25
G1 Z-0.55 F30
G1 X16.5187 Y5.3937 F25
G1 Z-0.5 F30
G1 X16.5187 Y5.6437 F25
G1 Z-0.55 F30
G1 X16.5187 Y10.3937 F25
G1 Z-0.5 F30
G1 X16.5187 Y10.6437 F25
G1 Z-0.55 F30
G1 X16.5187 Y15.3937 F25
G1 Z-0.5 F30
G1 X16.5187 Y15.6437 F25
G1 Z-0.55 F30
G1 X16.5187 Y20.3937 F25
G1 Z-0.5 F30
G1 X16.5187 Y20.6437 F25
G1 Z-0.55 F30
G1 X16.5187 Y25.3937 F25
G1 Z-0.5 F30
G1 X16.5187 Y25.6437 F25
G1 Z-0.55 F30
G1 X16.5187 Y27.3937 F25
G3 X16.3937 Y27.5187 I-0.125 J0
G1 X13.5901 Y27.5187
G1 Z-0.5 F30
G1 X13.3401 Y27.5187 F25
G1 Z-0.55 F30
G1 X8.5901 Y27.5187 F25
G1 Z-0.5 F30
G1 X8.3401 Y27.5187 F25
G1 Z-0.55 F30
G1 X3.5901 Y27.5187 F25
G1 Z-0.5 F30
G1 X3.3401 Y27.5187 F25
G1 Z-0.55 F30
G1 X0.3937 Y27.5187 F25
G3 X0.2687 Y27.3937 I0 J-0.125
G1 X0.2687 Y25.7864
G1 Z-0.5 F30
G1 X0.2687 Y25.5364 F25
G1 Z-0.55 F30
G1 X0.2687 Y20.7864 F25
G1 Z-0.5 F30
G1 X0.2687 Y20.5364 F25
G1 Z-0.55 F30
G1 X0.2687 Y15.7864 F25
G1 Z-0.5 F30
G1 X0.2687 Y15.5364 F25
G1 Z-0.55 F30
G1 X0.2687 Y10.7864 F25
G1 Z-0.5 F30
G1 X0.2687 Y10.5364 F25
G1 Z-0.55 F30
G1 X0.2687 Y5.7864 F25
G1 Z-0.5 F30
G1 X0.2687 Y5.5364 F25
G1 Z-0.55 F30
G1 X0.2687 Y0.7864 F25
G1 Z-0.5 F30
G1 X0.2687 Y0.5364 F25
G1 Z-0.55 F30
G1 X0.2687 Y0.3937 F25
G3 X0.3937 Y0.2687 I0.125 J0
G1 X4.8047 Y0.2687
G1 Z-0.5 F30
G1 X5.0547 Y0.2687 F25
G1 Z-0.55 F30
G1 X9.8047 Y0.2687 F25
G1 Z-0.5 F30
G1 X10.0547 Y0.2687 F25
G1 Z-0.55 F30
G1 X16.3937 Y0.2687 F25
G3 X16.5187 Y0.3937 I0 J0.125
G1 Z-0.6 F30
G1 Z-0.5 F30
G1 X16.5187 Y0.6437 F25
G1 Z-0.6 F30
G1 X16.5187 Y5.3937 F25
G1 Z-0.5 F30
G1 X16.5187 Y5.6437 F25
G1 Z-0.6 F30
G1 X16.5187 Y10.3937 F25
G1 Z-0.5 F30
G1 X16.5187 Y10.6437 F25
G1 Z-0.6 F30
G1 X16.5187 Y15.3937 F25
G1 Z-0.5 F30
G1 X16.5187 Y15.6437 F25
G1 Z-0.6 F30
G1 X16.5187 Y20.3937 F25
G1 Z-0.5 F30
G1 X16.5187 Y20.6437 F25
G1 Z-0.6 F30
G1 X16.5187 Y25.3937 F25
G1 Z-0.5 F30
G1 X16.5187 Y25.6437 F25
G1 Z-0.6 F30
G1 X16.5187 Y27.3937 F25
G3 X16.3937 Y27.5187 I-0.125 J0
G1 X13.5901 Y27.5187
G1 Z-0.5 F30
G1 X13.3401 Y27.5187 F25
G1 Z-0.6 F30
G1 X8.5901 Y27.5187 F25
G1 Z-0.5 F30
G1 X8.3401 Y27.5187 F25
G1 Z-0.6 F30
G1 X3.5901 Y27.5187 F25
G1 Z-0.5 F30
G1 X3.3401 Y27.5187 F25
G1 Z-0.6 F30
G1 X0.3937 Y27.5187 F25
G3 X0.2687 Y27.3937 I0 J-0.125
G1 X0.2687 Y25.7864
G1 Z-0.5 F30
G1 X0.2687 Y25.5364 F25
G1 Z-0.6 F30
G1 X0.2687 Y20.7864 F25
G1 Z-0.5 F30
G1 X0.2687 Y20.5364 F25
G1 Z-0.6 F30
G1 X0.2687 Y15.7864 F25
G1 Z-0.5 F30
G1 X0.2687 Y15.5364 F25
G1 Z-0.6 F30
G1 X0.2687 Y10.7864 F25
G1 Z-0.5 F30
G1 X0.2687 Y10.5364 F25
G1 Z-0.6 F30
G1 X0.2687 Y5.7864 F25
G1 Z-0.5 F30
G1 X0.2687 Y5.5364 F25
G1 Z-0.6 F30
G1 X0.2687 Y0.7864 F25
G1 Z-0.5 F30
G1 X0.2687 Y0.5364 F25
G1 Z-0.6 F30
G1 X0.2687 Y0.3937 F25
G3 X0.3937 Y0.2687 I0.125 J0
G1 X4.8047 Y0.2687
G1 Z-0.5 F30
G1 X5.0547 Y0.2687 F25
G1 Z-0.6 F30
G1 X9.8047 Y0.2687 F25
G1 Z-0.5 F30
G1 X10.0547 Y0.2687 F25
G1 Z-0.6 F30
G1 X16.3937 Y0.2687 F25
G3 X16.5187 Y0.3937 I0 J0.125
G1 Z-0.65 F30
G1 Z-0.5 F30
G1 X16.5187 Y0.6437 F25
G1 Z-0.65 F30
G1 X16.5187 Y5.3937 F25
G1 Z-0.5 F30
G1 X16.5187 Y5.6437 F25
G1 Z-0.65 F30
G1 X16.5187 Y10.3937 F25
G1 Z-0.5 F30
G1 X16.5187 Y10.6437 F25
G1 Z-0.65 F30
G1 X16.5187 Y15.3937 F25
G1 Z-0.5 F30
G1 X16.5187 Y15.6437 F25
G1 Z-0.65 F30
G1 X16.5187 Y20.3937 F25
G1 Z-0.5 F30
G1 X16.5187 Y20.6437 F25
G1 Z-0.65 F30
G1 X16.5187 Y25.3937 F25
G1 Z-0.5 F30
G1 X16.5187 Y25.6437 F25
G1 Z-0.65 F30
G1 X16.5187 Y27.3937 F25
G3 X16.3937 Y27.5187 I-0.125 J0
G1 X13.5901 Y27.5187
G1 Z-0.5 F30
G1 X13.3401 Y27.5187 F25
G1 Z-0.65 F30
G1 X8.5901 Y27.5187 F25
G1 Z-0.5 F30
G1 X8.3401 Y27.5187 F25
G1 Z-0.65 F30
G1 X3.5901 Y27.5187 F25
G1 Z-0.5 F30
G1 X3.3401 Y27.5187 F25
G1 Z-0.65 F30
G1 X0.3937 Y27.5187 F25
G3 X0.2687 Y27.3937 I0 J-0.125
G1 X0.2687 Y25.7864
G1 Z-0.5 F30
G1 X0.2687 Y25.5364 F25
G1 Z-0.65 F30
G1 X0.2687 Y20.7864 F25
G1 Z-0.5 F30
G1 X0.2687 Y20.5364 F25
G1 Z-0.65 F30
G1 X0.2687 Y15.7864 F25
G1 Z-0.5 F30
G1 X0.2687 Y15.5364 F25
G1 Z-0.65 F30
G1 X0.2687 Y10.7864 F25
G1 Z-0.5 F30
G1 X0.2687 Y10.5364 F25
G1 Z-0.65 F30
G1 X0.2687 Y5.7864 F25
G1 Z-0.5 F30
G1 X0.2687 Y5.5364 F25
G1 Z-0.65 F30
G1 X0.2687 Y0.7864 F25
G1 Z-0.5 F30
G1 X0.2687 Y0.5364 F25
G1 Z-0.65 F30
G1 X0.2687 Y0.3937 F25
G3 X0.3937 Y0.2687 I0.125 J0
G1 X4.8047 Y0.2687
G1 Z-0.5 F30
G1 X5.0547 Y0.2687 F25
G1 Z-0.65 F30
G1 X9.8047 Y0.2687 F25
G1 Z-0.5 F30
G1 X10.0547 Y0.2687 F25
G1 Z-0.65 F30
G1 X16.3937 Y0.2687 F25
G3 X16.5187 Y0.3937 I0 J0.125
G1 Z-0.7 F30
G1 Z-0.5 F30
G1 X16.5187 Y0.6437 F25
G1 Z-0.7 F30
G1 X16.5187 Y5.3937 F25
G1 Z-0.5 F30
G1 X16.5187 Y5.6437 F25
G1 Z-0.7 F30
G1 X16.5187 Y10.3937 F25
G1 Z-0.5 F30
G1 X16.5187 Y10.6437 F25
G1 Z-0.7 F30
G1 X16.5187 Y15.3937 F25
G1 Z-0.5 F30
G1 X16.5187 Y15.6437 F25
G1 Z-0.7 F30
G1 X16.5187 Y20.3937 F25
G1 Z-0.5 F30
G1 X16.5187 Y20.6437 F25
G1 Z-0.7 F30
G1 X16.5187 Y25.3937 F25
G1 Z-0.5 F30
G1 X16.5187 Y25.6437 F25
G1 Z-0.7 F30
G1 X16.5187 Y27.3937 F25
G3 X16.3937 Y27.5187 I-0.125 J0
G1 X13.5901 Y27.5187
G1 Z-0.5 F30
G1 X13.3401 Y27.5187 F25
G1 Z-0.7 F30
G1 X8.5901 Y27.5187 F25
G1 Z-0.5 F30
G1 X8.3401 Y27.5187 F25
G1 Z-0.7 F30
G1 X3.5901 Y27.5187 F25
G1 Z-0.5 F30
G1 X3.3401 Y27.5187 F25
G1 Z-0.7 F30
G1 X0.3937 Y27.5187 F25
G3 X0.2687 Y27.3937 I0 J-0.125
G1 X0.2687 Y25.7864
G1 Z-0.5 F30
G1 X0.2687 Y25.5364 F25
G1 Z-0.7 F30
G1 X0.2687 Y20.7864 F25
G1 Z-0.5 F30
G1 X0.2687 Y20.5364 F25
G1 Z-0.7 F30
G1 X0.2687 Y15.7864 F25
G1 Z-0.5 F30
G1 X0.2687 Y15.5364 F25
G1 Z-0.7 F30
G1 X0.2687 Y10.7864 F25
G1 Z-0.5 F30
G1 X0.2687 Y10.5364 F25
G1 Z-0.7 F30
G1 X0.2687 Y5.7864 F25
G1 Z-0.5 F30
G1 X0.2687 Y5.5364 F25
G1 Z-0.7 F30
G1 X0.2687 Y0.7864 F25
G1 Z-0.5 F30
G1 X0.2687 Y0.5364 F25
G1 Z-0.7 F30
G1 X0.2687 Y0.3937 F25
G3 X0.3937 Y0.2687 I0.125 J0
G1 X4.8047 Y0.2687
G1 Z-0.5 F30
G1 X5.0547 Y0.2687 F25
G1 Z-0.7 F30
G1 X9.8047 Y0.2687 F25
G1 Z-0.5 F30
G1 X10.0547 Y0.2687 F25
G1 Z-0.7 F30
G1 X16.3937 Y0.2687 F25
G3 X16.5187 Y0.3937 I0 J0.125
G1 Z-0.75 F30
G1 Z-0.5 F30
G1 X16.5187 Y0.6437 F25
G1 Z-0.75 F30
G1 X16.5187 Y5.3937 F25
G1 Z-0.5 F30
G1 X16.5187 Y5.6437 F25
G1 Z-0.75 F30
G1 X16.5187 Y10.3937 F25
G1 Z-0.5 F30
G1 X16.5187 Y10.6437 F25
G1 Z-0.75 F30
G1 X16.5187 Y15.3937 F25
G1 Z-0.5 F30
G1 X16.5187 Y15.6437 F25
G1 Z-0.75 F30
G1 X16.5187 Y20.3937 F25
G1 Z-0.5 F30
G1 X16.5187 Y20.6437 F25
G1 Z-0.75 F30
G1 X16.5187 Y25.3937 F25
G1 Z-0.5 F30
G1 X16.5187 Y25.6437 F25
G1 Z-0.75 F30
G1 X16.5187 Y27.3937 F25
G3 X16.3937 Y27.5187 I-0.125 J0
G1 X13.5901 Y27.5187
G1 Z-0.5 F30
G1 X13.3401 Y27.5187 F25
G1 Z-0.75 F30
G1 X8.5901 Y27.5187 F25
G1 Z-0.5 F30
G1 X8.3401 Y27.5187 F25
G1 Z-0.75 F30
G1 X3.5901 Y27.5187 F25
G1 Z-0.5 F30
G1 X3.3401 Y27.5187 F25
G1 Z-0.75 F30
G1 X0.3937 Y27.5187 F25
G3 X0.2687 Y27.3937 I0 J-0.125
G1 X0.2687 Y25.7864
G1 Z-0.5 F30
G1 X0.2687 Y25.5364 F25
G1 Z-0.75 F30
G1 X0.2687 Y20.7864 F25
G1 Z-0.5 F30
G1 X0.2687 Y20.5364 F25
G1 Z-0.75 F30
G1 X0.2687 Y15.7864 F25
G1 Z-0.5 F30
G1 X0.2687 Y15.5364 F25
G1 Z-0.75 F30
G1 X0.2687 Y10.7864 F25
G1 Z-0.5 F30
G1 X0.2687 Y10.5364 F25
G1 Z-0.75 F30
G1 X0.2687 Y5.7864 F25
G1 Z-0.5 F30
G1 X0.2687 Y5.5364 F25
G1 Z-0.75 F30
G1 X0.2687 Y0.7864 F25
G1 Z-0.5 F30
G1 X0.2687 Y0.5364 F25
G1 Z-0.75 F30
G1 X0.2687 Y0.3937 F25
G3 X0.3937 Y0.2687 I0.125 J0
G1 X4.8047 Y0.2687
G1 Z-0.5 F30
G1 X5.0547 Y0.2687 F25
G1 Z-0.75 F30
G1 X9.8047 Y0.2687 F25
G1 Z-0.5 F30
G1 X10.0547 Y0.2687 F25
G1 Z-0.75 F30
G1 X16.3937 Y0.2687 F25
G3 X16.5187 Y0.3937 I0 J0.125
G0 Z0.25
G0 X14.174 Y28.7439
G1 Z-0.05 F30
G1 X14.174 Y28.9939 F25
G1 X14.174 Y33.7439
G1 X14.174 Y33.9939
G1 X14.174 Y38.7439
G1 X14.174 Y38.9939
G1 X14.174 Y43.7439
G1 X14.174 Y43.9939
G1 X14.174 Y44.2439
G3 X14.049 Y44.3689 I-0.125 J0
G1 X9.7454 Y44.3689
G1 X9.4954 Y44.3689
G1 X4.7454 Y44.3689
G1 X4.4954 Y44.3689
G1 X0.549 Y44.3689
G3 X0.424 Y44.2439 I0 J-0.125
G1 X0.424 Y43.6366
G1 X0.424 Y43.3866
G1 X0.424 Y38.6366
G1 X0.424 Y38.3866
G1 X0.424 Y33.6366
G1 X0.424 Y33.3866
G1 X0.424 Y28.7439
G3 X0.4673 Y28.6493 I0.125 J0
G3 X0.549 Y28.6189 I0.0817 J0.0946
G1 X0.71 Y28.6189
G1 X5.46 Y28.6189
G1 X5.71 Y28.6189
G1 X14.049 Y28.6189
G3 X14.174 Y28.7439 I0 J0.125
G1 Z-0.1 F30
G1 X14.174 Y28.9939 F25
G1 X14.174 Y33.7439
G1 X14.174 Y33.9939
G1 X14.174 Y38.7439
G1 X14.174 Y38.9939
G1 X14.174 Y43.7439
G1 X14.174 Y43.9939
G1 X14.174 Y44.2439
G3 X14.049 Y44.3689 I-0.125 J0
G1 X9.7454 Y44.3689
G1 X9.4954 Y44.3689
G1 X4.7454 Y44.3689
G1 X4.4954 Y44.3689
G1 X0.549 Y44.3689
G3 X0.424 Y44.2439 I0 J-0.125
G1 X0.424 Y43.6366
G1 X0.424 Y43.3866
G1 X0.424 Y38.6366
G1 X0.424 Y38.3866
G1 X0.424 Y33.6366
G1 X0.424 Y33.3866
G1 X0.424 Y28.7439
G3 X0.4673 Y28.6493 I0.125 J0
G3 X0.549 Y28.6189 I0.0817 J0.0946
G1 X0.71 Y28.6189
G1 X5.46 Y28.6189
G1 X5.71 Y28.6189
G1 X14.049 Y28.6189
G3 X14.174 Y28.7439 I0 J0.125
G1 Z-0.15 F30
G1 X14.174 Y28.9939 F25
G1 X14.174 Y33.7439
G1 X14.174 Y33.9939
G1 X14.174 Y38.7439
G1 X14.174 Y38.9939
G1 X14.174 Y43.7439
G1 X14.174 Y43.9939
G1 X14.174 Y44.2439
G3 X14.049 Y44.3689 I-0.125 J0
G1 X9.7454 Y44.3689
G1 X9.4954 Y44.3689
G1 X4.7454 Y44.3689
G1 X4.4954 Y44.3689
G1 X0.549 Y44.3689
G3 X0.424 Y44.2439 I0 J-0.125
G1 X0.424 Y43.6366
G1 X0.424 Y43.3866
G1 X0.424 Y38.6366
G1 X0.424 Y38.3866
G1 X0.424 Y33.6366
G1 X0.424 Y33.3866
G1 X0.424 Y28.7439
G3 X0.4673 Y28.6493 I0.125 J0
G3 X0.549 Y28.6189 I0.0817 J0.0946
G1 X0.71 Y28.6189
G1 X5.46 Y28.6189
G1 X5.71 Y28.6189
G1 X14.049 Y28.6189
G3 X14.174 Y28.7439 I0 J0.125
G1 Z-0.2 F30
G1 X14.174 Y28.9939 F25
G1 X14.174 Y33.7439
G1 X14.174 Y33.9939
G1 X14.174 Y38.7439
G1 X14.174 Y38.9939
G1 X14.174 Y43.7439
G1 X14.174 Y43.9939
G1 X14.174 Y44.2439
G3 X14.049 Y44.3689 I-0.125 J0
G1 X9.7454 Y44.3689
G1 X9.4954 Y44.3689
G1 X4.7454 Y44.3689
G1 X4.4954 Y44.3689
G1 X0.549 Y44.3689
G3 X0.424 Y44.2439 I0 J-0.125
G1 X0.424 Y43.6366
G1 X0.424 Y43.3866
G1 X0.424 Y38.6366
G1 X0.424 Y38.3866
G1 X0.424 Y33.6366
G1 X0.424 Y33.3866
G1 X0.424 Y28.7439
G3 X0.4673 Y28.6493 I0.125 J0
G3 X0.549 Y28.6189 I0.0817 J0.0946
G1 X0.71 Y28.6189
G1 X5.46 Y28.6189
G1 X5.71 Y28.6189
G1 X14.049 Y28.6189
G3 X14.174 Y28.7439 I0 J0.125
G1 Z-0.25 F30
G1 X14.174 Y28.9939 F25
G1 X14.174 Y33.7439
G1 X14.174 Y33.9939
G1 X14.174 Y38.7439
G1 X14.174 Y38.9939
G1 X14.174 Y43.7439
G1 X14.174 Y43.9939
G1 X14.174 Y44.2439
G3 X14.049 Y44.3689 I-0.125 J0
G1 X9.7454 Y44.3689
G1 X9.4954 Y44.3689
G1 X4.7454 Y44.3689
G1 X4.4954 Y44.3689
G1 X0.549 Y44.3689
G3 X0.424 Y44.2439 I0 J-0.125
G1 X0.424 Y43.6366
G1 X0.424 Y43.3866
G1 X0.424 Y38.6366
G1 X0.424 Y38.3866
G1 X0.424 Y33.6366
G1 X0.424 Y33.3866
G1 X0.424 Y28.7439
G3 X0.4673 Y28.6493 I0.125 J0
G3 X0.549 Y28.6189 I0.0817 J0.0946
G1 X0.71 Y28.6189
G1 X5.46 Y28.6189
G1 X5.71 Y28.6189
G1 X14.049 Y28.6189
G3 X14.174 Y28.7439 I0 J0.125
G1 Z-0.3 F30
G1 X14.174 Y28.9939 F25
G1 X14.174 Y33.7439
G1 X14.174 Y33.9939
G1 X14.174 Y38.7439
G1 X14.174 Y38.9939
G1 X14.174 Y43.7439
G1 X14.174 Y43.9939
G1 X14.174 Y44.2439
G3 X14.049 Y44.3689 I-0.125 J0
G1 X9.7454 Y44.3689
G1 X9.4954 Y44.3689
G1 X4.7454 Y44.3689
G1 X4.4954 Y44.3689
G1 X0.549 Y44.3689
G3 X0.424 Y44.2439 I0 J-0.125
G1 X0.424 Y43.6366
G1 X0.424 Y43.3866
G1 X0.424 Y38.6366
G1 X0.424 Y38.3866
G1 X0.424 Y33.6366
G1 X0.424 Y33.3866
G1 X0.424 Y28.7439
G3 X0.4673 Y28.6493 I0.125 J0
G3 X0.549 Y28.6189 I0.0817 J0.0946
G1 X0.71 Y28.6189
G1 X5.46 Y28.6189
G1 X5.71 Y28.6189
G1 X14.049 Y28.6189
G3 X14.174 Y28.7439 I0 J0.125
G1 Z-0.35 F30
G1 X14.174 Y28.9939 F25
G1 X14.174 Y33.7439
G1 X14.174 Y33.9939
G1 X14.174 Y38.7439
G1 X14.174 Y38.9939
G1 X14.174 Y43.7439
G1 X14.174 Y43.9939
G1 X14.174 Y44.2439
G3 X14.049 Y44.3689 I-0.125 J0
G1 X9.7454 Y44.3689
G1 X9.4954 Y44.3689
G1 X4.7454 Y44.3689
G1 X4.4954 Y44.3689
G1 X0.549 Y44.3689
G3 X0.424 Y44.2439 I0 J-0.125
G1 X0.424 Y43.6366
G1 X0.424 Y43.3866
G1 X0.424 Y38.6366
G1 X0.424 Y38.3866
G1 X0.424 Y33.6366
G1 X0.424 Y33.3866
G1 X0.424 Y28.7439
G3 X0.4673 Y28.6493 I0.125 J0
G3 X0.549 Y28.6189 I0.0817 J0.0946
G1 X0.71 Y28.6189
G1 X5.46 Y28.6189
G1 X5.71 Y28.6189
G1 X14.049 Y28.6189
G3 X14.174 Y28.7439 I0 J0.125
G1 Z-0.4 F30
G1 X14.174 Y28.9939 F25
G1 X14.174 Y33.7439
G1 X14.174 Y33.9939
G1 X14.174 Y38.7439
G1 X14.174 Y38.9939
G1 X14.174 Y43.7439
G1 X14.174 Y43.9939
G1 X14.174 Y44.2439
G3 X14.049 Y44.3689 I-0.125 J0
G1 X9.7454 Y44.3689
G1 X9.4954 Y44.3689
G1 X4.7454 Y44.3689
G1 X4.4954 Y44.3689
G1 X0.549 Y44.3689
G3 X0.424 Y44.2439 I0 J-0.125
G1 X0.424 Y43.6366
G1 X0.424 Y43.3866
G1 X0.424 Y38.6366
G1 X0.424 Y38.3866
G1 X0.424 Y33.6366
G1 X0.424 Y33.3866
G1 X0.424 Y28.7439
G3 X0.4673 Y28.6493 I0.125 J0
G3 X0.549 Y28.6189 I0.0817 J0.0946
G1 X0.71 Y28.6189
G1 X5.46 Y28.6189
G1 X5.71 Y28.6189
G1 X14.049 Y28.6189
G3 X14.174 Y28.7439 I0 J0.125
G1 Z-0.45 F30
G1 X14.174 Y28.9939 F25
G1 X14.174 Y33.7439
G1 X14.174 Y33.9939
G1 X14.174 Y38.7439
G1 X14.174 Y38.9939
G1 X14.174 Y43.7439
G1 X14.174 Y43.9939
G1 X14.174 Y44.2439
G3 X14.049 Y44.3689 I-0.125 J0
G1 X9.7454 Y44.3689
G1 X9.4954 Y44.3689
G1 X4.7454 Y44.3689
G1 X4.4954 Y44.3689
G1 X0.549 Y44.3689
G3 X0.424 Y44.2439 I0 J-0.125
G1 X0.424 Y43.6366
G1 X0.424 Y43.3866
G1 X0.424 Y38.6366
G1 X0.424 Y38.3866
G1 X0.424 Y33.6366
G1 X0.424 Y33.3866
G1 X0.424 Y28.7439
G3 X0.4673 Y28.6493 I0.125 J0
G3 X0.549 Y28.6189 I0.0817 J0.0946
G1 X0.71 Y28.6189
G1 X5.46 Y28.6189
G1 X5.71 Y28.6189
G1 X14.049 Y28.6189
G3 X14.174 Y28.7439 I0 J0.125
G1 Z-0.5 F30
G1 X14.174 Y28.9939 F25
G1 X14.174 Y33.7439
G1 X14.174 Y33.9939
G1 X14.174 Y38.7439
G1 X14.174 Y38.9939
G1 X14.174 Y43.7439
G1 X14.174 Y43.9939
G1 X14.174 Y44.2439
G3 X14.049 Y44.3689 I-0.125 J0
G1 X9.7454 Y44.3689
G1 X9.4954 Y44.3689
G1 X4.7454 Y44.3689
G1 X4.4954 Y44.3689
G1 X0.549 Y44.3689
G3 X0.424 Y44.2439 I0 J-0.125
G1 X0.424 Y43.6366
G1 X0.424 Y43.3866
G1 X0.424 Y38.6366
G1 X0.424 Y38.3866
G1 X0.424 Y33.6366
G1 X0.424 Y33.3866
G1 X0.424 Y28.7439
G3 X0.4673 Y28.6493 I0.125 J0
G3 X0.549 Y28.6189 I0.0817 J0.0946
G1 X0.71 Y28.6189
G1 X5.46 Y28.6189
G1 X5.71 Y28.6189
G1 X14.049 Y28.6189
G3 X14.174 Y28.7439 I0 J0.125
G1 Z-0.55 F30
G1 Z-0.5 F30
G1 X14.174 Y28.9939 F25
G1 Z-0.55 F30
G1 X14.174 Y33.7439 F25
G1 Z-0.5 F30
G1 X14.174 Y33.9939 F25
G1 Z-0.55 F30
G1 X14.174 Y38.7439 F25
G1 Z-0.5 F30
G1 X14.174 Y38.9939 F25
G1 Z-0.55 F30
G1 X14.174 Y43.7439 F25
G1 Z-0.5 F30
G1 X14.174 Y43.9939 F25
G1 Z-0.55 F30
G1 X14.174 Y44.2439 F25
G3 X14.049 Y44.3689 I-0.125 J0
G1 X9.7454 Y44.3689
G1 Z-0.5 F30
G1 X9.4954 Y44.3689 F25
G1 Z-0.55 F30
G1 X4.7454 Y44.3689 F25
G1 Z-0.5 F30
G1 X4.4954 Y44.3689 F25
G1 Z-0.55 F30
G1 X0.549 Y44.3689 F25
G3 X0.424 Y44.2439 I0 J-0.125
G1 X0.424 Y43.6366
G1 Z-0.5 F30
G1 X0.424 Y43.3866 F25
G1 Z-0.55 F30
G1 X0.424 Y38.6366 F25
G1 Z-0.5 F30
G1 X0.424 Y38.3866 F25
G1 Z-0.55 F30
G1 X0.424 Y33.6366 F25
G1 Z-0.5 F30
G1 X0.424 Y33.3866 F25
G1 Z-0.55 F30
G1 X0.424 Y28.7439 F25
G3 X0.4673 Y28.6493 I0.125 J0
G1 Z-0.5 F30
G3 X0.549 Y28.6189 I0.0817 J0.0946 F25
G1 X0.71 Y28.6189
G1 Z-0.55 F30
G1 X5.46 Y28.6189 F25
G1 Z-0.5 F30
G1 X5.71 Y28.6189 F25
G1 Z-0.55 F30
G1 X14.049 Y28.6189 F25
G3 X14.174 Y28.7439 I0 J0.125
G1 Z-0.6 F30
G1 Z-0.5 F30
G1 X14.174 Y28.9939 F25
G1 Z-0.6 F30
G1 X14.174 Y33.7439 F25
G1 Z-0.5 F30
G1 X14.174 Y33.9939 F25
G1 Z-0.6 F30
G1 X14.174 Y38.7439 F25
G1 Z-0.5 F30
G1 X14.174 Y38.9939 F25
G1 Z-0.6 F30
G1 X14.174 Y43.7439 F25
G1 Z-0.5 F30
G1 X14.174 Y43.9939 F25
G1 Z-0.6 F30
G1 X14.174 Y44.2439 F25
G3 X14.049 Y44.3689 I-0.125 J0
G1 X9.7454 Y44.3689
G1 Z-0.5 F30
G1 X9.4954 Y44.3689 F25
G1 Z-0.6 F30
G1 X4.7454 Y44.3689 F25
G1 Z-0.5 F30
G1 X4.4954 Y44.3689 F25
G1 Z-0.6 F30
G1 X0.549 Y44.3689 F25
G3 X0.424 Y44.2439 I0 J-0.125
G1 X0.424 Y43.6366
G1 Z-0.5 F30
G1 X0.424 Y43.3866 F25
G1 Z-0.6 F30
G1 X0.424 Y38.6366 F25
G1 Z-0.5 F30
G1 X0.424 Y38.3866 F25
G1 Z-0.6 F30
G1 X0.424 Y33.6366 F25
G1 Z-0.5 F30
G1 X0.424 Y33.3866 F25
G1 Z-0.6 F30
G1 X0.424 Y28.7439 F25
G3 X0.4673 Y28.6493 I0.125 J0
G1 Z-0.5 F30
G3 X0.549 Y28.6189 I0.0817 J0.0946 F25
G1 X0.71 Y28.6189
G1 Z-0.6 F30
G1 X5.46 Y28.6189 F25
G1 Z-0.5 F30
G1 X5.71 Y28.6189 F25
G1 Z-0.6 F30
G1 X14.049 Y28.6189 F25
G3 X14.174 Y28.7439 I0 J0.125
G1 Z-0.65 F30
G1 Z-0.5 F30
G1 X14.174 Y28.9939 F25
G1 Z-0.65 F30
G1 X14.174 Y33.7439 F25
G1 Z-0.5 F30
G1 X14.174 Y33.9939 F25
G1 Z-0.65 F30
G1 X14.174 Y38.7439 F25
G1 Z-0.5 F30
G1 X14.174 Y38.9939 F25
G1 Z-0.65 F30
G1 X14.174 Y43.7439 F25
G1 Z-0.5 F30
G1 X14.174 Y43.9939 F25
G1 Z-0.65 F30
G1 X14.174 Y44.2439 F25
G3 X14.049 Y44.3689 I-0.125 J0
G1 X9.7454 Y44.3689
G1 Z-0.5 F30
G1 X9.4954 Y44.3689 F25
G1 Z-0.65 F30
G1 X4.7454 Y44.3689 F25
G1 Z-0.5 F30
G1 X4.4954 Y44.3689 F25
G1 Z-0.65 F30
G1 X0.549 Y44.3689 F25
G3 X0.424 Y44.2439 I0 J-0.125
G1 X0.424 Y43.6366
G1 Z-0.5 F30
G1 X0.424 Y43.3866 F25
G1 Z-0.65 F30
G1 X0.424 Y38.6366 F25
G1 Z-0.5 F30
G1 X0.424 Y38.3866 F25
G1 Z-0.65 F30
G1 X0.424 Y33.6366 F25
G1 Z-0.5 F30
G1 X0.424 Y33.3866 F25
G1 Z-0.65 F30
G1 X0.424 Y28.7439 F25
G3 X0.4673 Y28.6493 I0.125 J0
G1 Z-0.5 F30
G3 X0.549 Y28.6189 I0.0817 J0.0946 F25
G1 X0.71 Y28.6189
G1 Z-0.65 F30
G1 X5.46 Y28.6189 F25
G1 Z-0.5 F30
G1 X5.71 Y28.6189 F25
G1 Z-0.65 F30
G1 X14.049 Y28.6189 F25
G3 X14.174 Y28.7439 I0 J0.125
G1 Z-0.7 F30
G1 Z-0.5 F30
G1 X14.174 Y28.9939 F25
G1 Z-0.7 F30
G1 X14.174 Y33.7439 F25
G1 Z-0.5 F30
G1 X14.174 Y33.9939 F25
G1 Z-0.7 F30
G1 X14.174 Y38.7439 F25
G1 Z-0.5 F30
G1 X14.174 Y38.9939 F25
G1 Z-0.7 F30
G1 X14.174 Y43.7439 F25
G1 Z-0.5 F30
G1 X14.174 Y43.9939 F25
G1 Z-0.7 F30
G1 X14.174 Y44.2439 F25
G3 X14.049 Y44.3689 I-0.125 J0
G1 X9.7454 Y44.3689
G1 Z-0.5 F30
G1 X9.4954 Y44.3689 F25
G1 Z-0.7 F30
G1 X4.7454 Y44.3689 F25
G1 Z-0.5 F30
G1 X4.4954 Y44.3689 F25
G1 Z-0.7 F30
G1 X0.549 Y44.3689 F25
G3 X0.424 Y44.2439 I0 J-0.125
G1 X0.424 Y43.6366
G1 Z-0.5 F30
G1 X0.424 Y43.3866 F25
G1 Z-0.7 F30
G1 X0.424 Y38.6366 F25
G1 Z-0.5 F30
G1 X0.424 Y38.3866 F25
G1 Z-0.7 F30
G1 X0.424 Y33.6366 F25
G1 Z-0.5 F30
G1 X0.424 Y33.3866 F25
G1 Z-0.7 F30
G1 X0.424 Y28.7439 F25
G3 X0.4673 Y28.6493 I0.125 J0
G1 Z-0.5 F30
G3 X0.549 Y28.6189 I0.0817 J0.0946 F25
G1 X0.71 Y28.6189
G1 Z-0.7 F30
G1 X5.46 Y28.6189 F25
G1 Z-0.5 F30
G1 X5.71 Y28.6189 F25
G1 Z-0.7 F30
G1 X14.049 Y28.6189 F25
G3 X14.174 Y28.7439 I0 J0.125
G1 Z-0.75 F30
G1 Z-0.5 F30
G1 X14.174 Y28.9939 F25
G1 Z-0.75 F30
G1 X14.174 Y33.7439 F25
G1 Z-0.5 F30
G1 X14.174 Y33.9939 F25
G1 Z-0.75 F30
G1 X14.174 Y38.7439 F25
G1 Z-0.5 F30
G1 X14.174 Y38.9939 F25
G1 Z-0.75 F30
G1 X14.174 Y43.7439 F25
G1 Z-0.5 F30
G1 X14.174 Y43.9939 F25
G1 Z-0.75 F30
G1 X14.174 Y44.2439 F25
G3 X14.049 Y44.3689 I-0.125 J0
G1 X9.7454 Y44.3689
G1 Z-0.5 F30
G1 X9.4954 Y44.3689 F25
G1 Z-0.75 F30
G1 X4.7454 Y44.3689 F25
G1 Z-0.5 F30
G1 X4.4954 Y44.3689 F25
G1 Z-0.75 F30
G1 X0.549 Y44.3689 F25
G3 X0.424 Y44.2439 I0 J-0.125
G1 X0.424 Y43.6366
G1 Z-0.5 F30
G1 X0.424 Y43.3866 F25
G1 Z-0.75 F30
G1 X0.424 Y38.6366 F25
G1 Z-0.5 F30
G1 X0.424 Y38.3866 F25
G1 Z-0.75 F30
G1 X0.424 Y33.6366 F25
G1 Z-0.5 F30
G1 X0.424 Y33.3866 F25
G1 Z-0.75 F30
G1 X0.424 Y28.7439 F25
G3 X0.4673 Y28.6493 I0.125 J0
G1 Z-0.5 F30
G3 X0.549 Y28.6189 I0.0817 J0.0946 F25
G1 X0.71 Y28.6189
G1 Z-0.75 F30
G1 X5.46 Y28.6189 F25
G1 Z-0.5 F30
G1 X5.71 Y28.6189 F25
G1 Z-0.75 F30
G1 X14.049 Y28.6189 F25
G3 X14.174 Y28.7439 I0 J0.125
G0 Z0.25
G0 X20.4205 Y27.6767
G1 Z-0.05 F30
G1 X20.3794 Y27.4301 F25
G1 X19.5985 Y22.7447
G1 X19.5574 Y22.4981
G1 X18.7765 Y17.8128
G1 X18.7354 Y17.5662
G1 X17.9545 Y12.8808
G1 X17.9205 Y12.6767
G3 X17.9188 Y12.6562 I0.1233 J-0.0205
G3 X17.9208 Y12.6338 I0.125 J0
G3 X18.0438 Y12.5312 I0.123 J0.0223
G1 X19.0438 Y12.5312
G3 X19.1651 Y12.6258 I0 J0.125
G1 X19.9922 Y15.9344
G1 X20.0529 Y16.1769
G1 X21.2049 Y20.7851
G1 X21.2655 Y21.0276
G1 X22.4176 Y25.6358
G1 X22.4782 Y25.8783
G1 X22.5164 Y26.0312
G1 X27.1089 Y26.0312
G1 X27.3589 Y26.0312
G1 X32.1089 Y26.0312
G1 X32.3589 Y26.0312
G1 X37.1089 Y26.0312
G1 X37.3589 Y26.0312
G1 X37.5712 Y26.0312
G1 X38.6718 Y21.629
G1 X38.7324 Y21.3864
G1 X39.8845 Y16.7782
G1 X39.9451 Y16.5357
G1 X40.9226 Y12.6258
G3 X41.0438 Y12.5312 I0.1213 J0.0303
G1 X41.5979 Y12.5312
G1 X41.8479 Y12.5312
G1 X42.0438 Y12.5312
G3 X42.1688 Y12.6562 I0 J0.125
G3 X42.1671 Y12.6767 I-0.125 J0
G1 X41.4541 Y16.9548
G1 X41.413 Y17.2014
G1 X40.6321 Y21.8867
G1 X40.591 Y22.1333
G1 X39.8101 Y26.8187
G1 X39.769 Y27.0653
G1 X39.6671 Y27.6767
G3 X39.5438 Y27.7812 I-0.1233 J-0.0205
G1 X37.7938 Y27.7812
G1 X37.7938 Y28.1562
G3 X37.6688 Y28.2812 I-0.125 J0
G1 X36.9188 Y28.2812
G3 X36.7938 Y28.1562 I0 J-0.125
G1 X36.7938 Y27.7812
G1 X36.4821 Y27.7812
G1 X36.2321 Y27.7812
G1 X31.4821 Y27.7812
G1 X31.2321 Y27.7812
G1 X30.4188 Y27.7812
G3 X30.2938 Y27.6562 I0 J-0.125
G1 X30.2938 Y26.9062
G3 X30.3197 Y26.8301 I0.125 J0
G1 X30.3377 Y26.8065
G1 X30.3428 Y26.7943
G1 X30.3445 Y26.7812
G1 X30.3428 Y26.768
G1 X30.3377 Y26.7558
G1 X30.3297 Y26.7453
G1 X30.3192 Y26.7373
G1 X30.3069 Y26.7322
G1 X30.2938 Y26.7305
G1 X30.2807 Y26.7322
G1 X30.2685 Y26.7373
G1 X30.2449 Y26.7553
G3 X30.1688 Y26.7812 I-0.0761 J-0.0992
G1 X29.9188 Y26.7812
G3 X29.8427 Y26.7553 I0 J-0.125
G1 X29.8192 Y26.7373
G1 X29.8069 Y26.7322
G1 X29.7938 Y26.7305
G1 X29.7807 Y26.7322
G1 X29.7685 Y26.7373
G1 X29.758 Y26.7453
G1 X29.7499 Y26.7558
G1 X29.7448 Y26.768
G1 X29.7431 Y26.7812
G1 X29.7448 Y26.7943
G1 X29.7499 Y26.8065
G1 X29.768 Y26.8301
G3 X29.7938 Y26.9062 I-0.0992 J0.0761
G1 X29.7938 Y27.6562
G3 X29.6688 Y27.7812 I-0.125 J0
G1 X28.5855 Y27.7812
G1 X28.3355 Y27.7812
G1 X23.2938 Y27.7812
G1 X23.2938 Y28.1562
G3 X23.1688 Y28.2812 I-0.125 J0
G1 X22.4188 Y28.2812
G3 X22.2938 Y28.1562 I0 J-0.125
G1 X22.2938 Y27.7812
G1 X20.5438 Y27.7812
G3 X20.4205 Y27.6767 I0 J-0.125
G1 Z-0.1 F30
G1 X20.3794 Y27.4301 F25
G1 X19.5985 Y22.7447
G1 X19.5574 Y22.4981
G1 X18.7765 Y17.8128
G1 X18.7354 Y17.5662
G1 X17.9545 Y12.8808
G1 X17.9205 Y12.6767
G3 X17.9188 Y12.6562 I0.1233 J-0.0205
G3 X17.9208 Y12.6338 I0.125 J0
G3 X18.0438 Y12.5312 I0.123 J0.0223
G1 X19.0438 Y12.5312
G3 X19.1651 Y12.6258 I0 J0.125
G1 X19.9922 Y15.9344
G1 X20.0529 Y16.1769
G1 X21.2049 Y20.7851
G1 X21.2655 Y21.0276
G1 X22.4176 Y25.6358
G1 X22.4782 Y25.8783
G1 X22.5164 Y26.0312
G1 X27.1089 Y26.0312
G1 X27.3589 Y26.0312
G1 X32.1089 Y26.0312
G1 X32.3589 Y26.0312
G1 X37.1089 Y26.0312
G1 X37.3589 Y26.0312
G1 X37.5712 Y26.0312
G1 X38.6718 Y21.629
G1 X38.7324 Y21.3864
G1 X39.8845 Y16.7782
G1 X39.9451 Y16.5357
G1 X40.9226 Y12.6258
G3 X41.0438 Y12.5312 I0.1213 J0.0303
G1 X41.5979 Y12.5312
G1 X41.8479 Y12.5312
G1 X42.0438 Y12.5312
G3 X42.1688 Y12.6562 I0 J0.125
G3 X42.1671 Y12.6767 I-0.125 J0
G1 X41.4541 Y16.9548
G1 X41.413 Y17.2014
G1 X40.6321 Y21.8867
G1 X40.591 Y22.1333
G1 X39.8101 Y26.8187
G1 X39.769 Y27.0653
G1 X39.6671 Y27.6767
G3 X39.5438 Y27.7812 I-0.1233 J-0.0205
G1 X37.7938 Y27.7812
G1 X37.7938 Y28.1562
G3 X37.6688 Y28.2812 I-0.125 J0
G1 X36.9188 Y28.2812
G3 X36.7938 Y28.1562 I0 J-0.125
G1 X36.7938 Y27.7812
G1 X36.4821 Y27.7812
G1 X36.2321 Y27.7812
G1 X31.4821 Y27.7812
G1 X31.2321 Y27.7812
G1 X30.4188 Y27.7812
G3 X30.2938 Y27.6562 I0 J-0.125
G1 X30.2938 Y26.9062
G3 X30.3197 Y26.8301 I0.125 J0
G1 X30.3377 Y26.8065
G1 X30.3428 Y26.7943
G1 X30.3445 Y26.7812
G1 X30.3428 Y26.768
G1 X30.3377 Y26.7558
G1 X30.3297 Y26.7453
G1 X30.3192 Y26.7373
G1 X30.3069 Y26.7322
G1 X30.2938 Y26.7305
G1 X30.2807 Y26.7322
G1 X30.2685 Y26.7373
G1 X30.2449 Y26.7553
G3 X30.1688 Y26.7812 I-0.0761 J-0.0992
G1 X29.9188 Y26.7812
G3 X29.8427 Y26.7553 I0 J-0.125
G1 X29.8192 Y26.7373
G1 X29.8069 Y26.7322
G1 X29.7938 Y26.7305
G1 X29.7807 Y26.7322
G1 X29.7685 Y26.7373
G1 X29.758 Y26.7453
G1 X29.7499 Y26.7558
G1 X29.7448 Y26.768
G1 X29.7431 Y26.7812
G1 X29.7448 Y26.7943
G1 X29.7499 Y26.8065
G1 X29.768 Y26.8301
G3 X29.7938 Y26.9062 I-0.0992 J0.0761
G1 X29.7938 Y27.6562
G3 X29.6688 Y27.7812 I-0.125 J0
G1 X28.5855 Y27.7812
G1 X28.3355 Y27.7812
G1 X23.2938 Y27.7812
G1 X23.2938 Y28.1562
G3 X23.1688 Y28.2812 I-0.125 J0
G1 X22.4188 Y28.2812
G3 X22.2938 Y28.1562 I0 J-0.125
G1 X22.2938 Y27.7812
G1 X20.5438 Y27.7812
G3 X20.4205 Y27.6767 I0 J-0.125
G1 Z-0.15 F30
G1 X20.3794 Y27.4301 F25
G1 X19.5985 Y22.7447
G1 X19.5574 Y22.4981
G1 X18.7765 Y17.8128
G1 X18.7354 Y17.5662
G1 X17.9545 Y12.8808
G1 X17.9205 Y12.6767
G3 X17.9188 Y12.6562 I0.1233 J-0.0205
G3 X17.9208 Y12.6338 I0.125 J0
G3 X18.0438 Y12.5312 I0.123 J0.0223
G1 X19.0438 Y12.5312
G3 X19.1651 Y12.6258 I0 J0.125
G1 X19.9922 Y15.9344
G1 X20.0529 Y16.1769
G1 X21.2049 Y20.7851
G1 X21.2655 Y21.0276
G1 X22.4176 Y25.6358
G1 X22.4782 Y25.8783
G1 X22.5164 Y26.0312
G1 X27.1089 Y26.0312
G1 X27.3589 Y26.0312
G1 X32.1089 Y26.0312
G1 X32.3589 Y26.0312
G1 X37.1089 Y26.0312
G1 X37.3589 Y26.0312
G1 X37.5712 Y26.0312
G1 X38.6718 Y21.629
G1 X38.7324 Y21.3864
G1 X39.8845 Y16.7782
G1 X39.9451 Y16.5357
G1 X40.9226 Y12.6258
G3 X41.0438 Y12.5312 I0.1213 J0.0303
G1 X41.5979 Y12.5312
G1 X41.8479 Y12.5312
G1 X42.0438 Y12.5312
G3 X42.1688 Y12.6562 I0 J0.125
G3 X42.1671 Y12.6767 I-0.125 J0
G1 X41.4541 Y16.9548
G1 X41.413 Y17.2014
G1 X40.6321 Y21.8867
G1 X40.591 Y22.1333
G1 X39.8101 Y26.8187
G1 X39.769 Y27.0653
G1 X39.6671 Y27.6767
G3 X39.5438 Y27.7812 I-0.1233 J-0.0205
G1 X37.7938 Y27.7812
G1 X37.7938 Y28.1562
G3 X37.6688 Y28.2812 I-0.125 J0
G1 X36.9188 Y28.2812
G3 X36.7938 Y28.1562 I0 J-0.125
G1 X36.7938 Y27.7812
G1 X36.4821 Y27.7812
G1 X36.2321 Y27.7812
G1 X31.4821 Y27.7812
G1 X31.2321 Y27.7812
G1 X30.4188 Y27.7812
G3 X30.2938 Y27.6562 I0 J-0.125
G1 X30.2938 Y26.9062
G3 X30.3197 Y26.8301 I0.125 J0
G1 X30.3377 Y26.8065
G1 X30.3428 Y26.7943
G1 X30.3445 Y26.7812
G1 X30.3428 Y26.768
G1 X30.3377 Y26.7558
G1 X30.3297 Y26.7453
G1 X30.3192 Y26.7373
G1 X30.3069 Y26.7322
G1 X30.2938 Y26.7305
G1 X30.2807 Y26.7322
G1 X30.2685 Y26.7373
G1 X30.2449 Y26.7553
G3 X30.1688 Y26.7812 I-0.0761 J-0.0992
G1 X29.9188 Y26.7812
G3 X29.8427 Y26.7553 I0 J-0.125
G1 X29.8192 Y26.7373
G1 X29.8069 Y26.7322
G1 X29.7938 Y26.7305
G1 X29.7807 Y26.7322
G1 X29.7685 Y26.7373
G1 X29.758 Y26.7453
G1 X29.7499 Y26.7558
G1 X29.7448 Y26.768
G1 X29.7431 Y26.7812
G1 X29.7448 Y26.7943
G1 X29.7499 Y26.8065
G1 X29.768 Y26.8301
G3 X29.7938 Y26.9062 I-0.0992 J0.0761
G1 X29.7938 Y27.6562
G3 X29.6688 Y27.7812 I-0.125 J0
G1 X28.5855 Y27.7812
G1 X28.3355 Y27.7812
G1 X23.2938 Y27.7812
G1 X23.2938 Y28.1562
G3 X23.1688 Y28.2812 I-0.125 J0
G1 X22.4188 Y28.2812
G3 X22.2938 Y28.1562 I0 J-0.125
G1 X22.2938 Y27.7812
G1 X20.5438 Y27.7812
G3 X20.4205 Y27.6767 I0 J-0.125
G1 Z-0.2 F30
G1 X20.3794 Y27.4301 F25
G1 X19.5985 Y22.7447
G1 X19.5574 Y22.4981
G1 X18.7765 Y17.8128
G1 X18.7354 Y17.5662
G1 X17.9545 Y12.8808
G1 X17.9205 Y12.6767
G3 X17.9188 Y12.6562 I0.1233 J-0.0205
G3 X17.9208 Y12.6338 I0.125 J0
G3 X18.0438 Y12.5312 I0.123 J0.0223
G1 X19.0438 Y12.5312
G3 X19.1651 Y12.6258 I0 J0.125
G1 X19.9922 Y15.9344
G1 X20.0529 Y16.1769
G1 X21.2049 Y20.7851
G1 X21.2655 Y21.0276
G1 X22.4176 Y25.6358
G1 X22.4782 Y25.8783
G1 X22.5164 Y26.0312
G1 X27.1089 Y26.0312
G1 X27.3589 Y26.0312
G1 X32.1089 Y26.0312
G1 X32.3589 Y26.0312
G1 X37.1089 Y26.0312
G1 X37.3589 Y26.0312
G1 X37.5712 Y26.0312
G1 X38.6718 Y21.629
G1 X38.7324 Y21.3864
G1 X39.8845 Y16.7782
G1 X39.9451 Y16.5357
G1 X40.9226 Y12.6258
G3 X41.0438 Y12.5312 I0.1213 J0.0303
G1 X41.5979 Y12.5312
G1 X41.8479 Y12.5312
G1 X42.0438 Y12.5312
G3 X42.1688 Y12.6562 I0 J0.125
G3 X42.1671 Y12.6767 I-0.125 J0
G1 X41.4541 Y16.9548
G1 X41.413 Y17.2014
G1 X40.6321 Y21.8867
G1 X40.591 Y22.1333
G1 X39.8101 Y26.8187
G1 X39.769 Y27.0653
G1 X39.6671 Y27.6767
G3 X39.5438 Y27.7812 I-0.1233 J-0.0205
G1 X37.7938 Y27.7812
G1 X37.7938 Y28.1562
G3 X37.6688 Y28.2812 I-0.125 J0
G1 X36.9188 Y28.2812
G3 X36.7938 Y28.1562 I0 J-0.125
G1 X36.7938 Y27.7812
G1 X36.4821 Y27.7812
G1 X36.2321 Y27.7812
G1 X31.4821 Y27.7812
G1 X31.2321 Y27.7812
G1 X30.4188 Y27.7812
G3 X30.2938 Y27.6562 I0 J-0.125
G1 X30.2938 Y26.9062
G3 X30.3197 Y26.8301 I0.125 J0
G1 X30.3377 Y26.8065
G1 X30.3428 Y26.7943
G1 X30.3445 Y26.7812
G1 X30.3428 Y26.768
G1 X30.3377 Y26.7558
G1 X30.3297 Y26.7453
G1 X30.3192 Y26.7373
G1 X30.3069 Y26.7322
G1 X30.2938 Y26.7305
G1 X30.2807 Y26.7322
G1 X30.2685 Y26.7373
G1 X30.2449 Y26.7553
G3 X30.1688 Y26.7812 I-0.0761 J-0.0992
G1 X29.9188 Y26.7812
G3 X29.8427 Y26.7553 I0 J-0.125
G1 X29.8192 Y26.7373
G1 X29.8069 Y26.7322
G1 X29.7938 Y26.7305
G1 X29.7807 Y26.7322
G1 X29.7685 Y26.7373
G1 X29.758 Y26.7453
G1 X29.7499 Y26.7558
G1 X29.7448 Y26.768
G1 X29.7431 Y26.7812
G1 X29.7448 Y26.7943
G1 X29.7499 Y26.8065
G1 X29.768 Y26.8301
G3 X29.7938 Y26.9062 I-0.0992 J0.0761
G1 X29.7938 Y27.6562
G3 X29.6688 Y27.7812 I-0.125 J0
G1 X28.5855 Y27.7812
G1 X28.3355 Y27.7812
G1 X23.2938 Y27.7812
G1 X23.2938 Y28.1562
G3 X23.1688 Y28.2812 I-0.125 J0
G1 X22.4188 Y28.2812
G3 X22.2938 Y28.1562 I0 J-0.125
G1 X22.2938 Y27.7812
G1 X20.5438 Y27.7812
G3 X20.4205 Y27.6767 I0 J-0.125
G1 Z-0.25 F30
G1 X20.3794 Y27.4301 F25
G1 X19.5985 Y22.7447
G1 X19.5574 Y22.4981
G1 X18.7765 Y17.8128
G1 X18.7354 Y17.5662
G1 X17.9545 Y12.8808
G1 X17.9205 Y12.6767
G3 X17.9188 Y12.6562 I0.1233 J-0.0205
G3 X17.9208 Y12.6338 I0.125 J0
G3 X18.0438 Y12.5312 I0.123 J0.0223
G1 X19.0438 Y12.5312
G3 X19.1651 Y12.6258 I0 J0.125
G1 X19.9922 Y15.9344
G1 X20.0529 Y16.1769
G1 X21.2049 Y20.7851
G1 X21.2655 Y21.0276
G1 X22.4176 Y25.6358
G1 X22.4782 Y25.8783
G1 X22.5164 Y26.0312
G1 X27.1089 Y26.0312
G1 X27.3589 Y26.0312
G1 X32.1089 Y26.0312
G1 X32.3589 Y26.0312
G1 X37.1089 Y26.0312
G1 X37.3589 Y26.0312
G1 X37.5712 Y26.0312
G1 X38.6718 Y21.629
G1 X38.7324 Y21.3864
G1 X39.8845 Y16.7782
G1 X39.9451 Y16.5357
G1 X40.9226 Y12.6258
G3 X41.0438 Y12.5312 I0.1213 J0.0303
G1 X41.5979 Y12.5312
G1 X41.8479 Y12.5312
G1 X42.0438 Y12.5312
G3 X42.1688 Y12.6562 I0 J0.125
G3 X42.1671 Y12.6767 I-0.125 J0
G1 X41.4541 Y16.9548
G1 X41.413 Y17.2014
G1 X40.6321 Y21.8867
G1 X40.591 Y22.1333
G1 X39.8101 Y26.8187
G1 X39.769 Y27.0653
G1 X39.6671 Y27.6767
G3 X39.5438 Y27.7812 I-0.1233 J-0.0205
G1 X37.7938 Y27.7812
G1 X37.7938 Y28.1562
G3 X37.6688 Y28.2812 I-0.125 J0
G1 X36.9188 Y28.2812
G3 X36.7938 Y28.1562 I0 J-0.125
G1 X36.7938 Y27.7812
G1 X36.4821 Y27.7812
G1 X36.2321 Y27.7812
G1 X31.4821 Y27.7812
G1 X31.2321 Y27.7812
G1 X30.4188 Y27.7812
G3 X30.2938 Y27.6562 I0 J-0.125
G1 X30.2938 Y26.9062
G3 X30.3197 Y26.8301 I0.125 J0
G1 X30.3377 Y26.8065
G1 X30.3428 Y26.7943
G1 X30.3445 Y26.7812
G1 X30.3428 Y26.768
G1 X30.3377 Y26.7558
G1 X30.3297 Y26.7453
G1 X30.3192 Y26.7373
G1 X30.3069 Y26.7322
G1 X30.2938 Y26.7305
G1 X30.2807 Y26.7322
G1 X30.2685 Y26.7373
G1 X30.2449 Y26.7553
G3 X30.1688 Y26.7812 I-0.0761 J-0.0992
G1 X29.9188 Y26.7812
G3 X29.8427 Y26.7553 I0 J-0.125
G1 X29.8192 Y26.7373
G1 X29.8069 Y26.7322
G1 X29.7938 Y26.7305
G1 X29.7807 Y26.7322
G1 X29.7685 Y26.7373
G1 X29.758 Y26.7453
G1 X29.7499 Y26.7558
G1 X29.7448 Y26.768
G1 X29.7431 Y26.7812
G1 X29.7448 Y26.7943
G1 X29.7499 Y26.8065
G1 X29.768 Y26.8301
G3 X29.7938 Y26.9062 I-0.0992 J0.0761
G1 X29.7938 Y27.6562
G3 X29.6688 Y27.7812 I-0.125 J0
G1 X28.5855 Y27.7812
G1 X28.3355 Y27.7812
G1 X23.2938 Y27.7812
G1 X23.2938 Y28.1562
G3 X23.1688 Y28.2812 I-0.125 J0
G1 X22.4188 Y28.2812
G3 X22.2938 Y28.1562 I0 J-0.125
G1 X22.2938 Y27.7812
G1 X20.5438 Y27.7812
G3 X20.4205 Y27.6767 I0 J-0.125
G1 Z-0.3 F30
G1 X20.3794 Y27.4301 F25
G1 X19.5985 Y22.7447
G1 X19.5574 Y22.4981
G1 X18.7765 Y17.8128
G1 X18.7354 Y17.5662
G1 X17.9545 Y12.8808
G1 X17.9205 Y12.6767
G3 X17.9188 Y12.6562 I0.1233 J-0.0205
G3 X17.9208 Y12.6338 I0.125 J0
G3 X18.0438 Y12.5312 I0.123 J0.0223
G1 X19.0438 Y12.5312
G3 X19.1651 Y12.6258 I0 J0.125
G1 X19.9922 Y15.9344
G1 X20.0529 Y16.1769
G1 X21.2049 Y20.7851
G1 X21.2655 Y21.0276
G1 X22.4176 Y25.6358
G1 X22.4782 Y25.8783
G1 X22.5164 Y26.0312
G1 X27.1089 Y26.0312
G1 X27.3589 Y26.0312
G1 X32.1089 Y26.0312
G1 X32.3589 Y26.0312
G1 X37.1089 Y26.0312
G1 X37.3589 Y26.0312
G1 X37.5712 Y26.0312
G1 X38.6718 Y21.629
G1 X38.7324 Y21.3864
G1 X39.8845 Y16.7782
G1 X39.9451 Y16.5357
G1 X40.9226 Y12.6258
G3 X41.0438 Y12.5312 I0.1213 J0.0303
G1 X41.5979 Y12.5312
G1 X41.8479 Y12.5312
G1 X42.0438 Y12.5312
G3 X42.1688 Y12.6562 I0 J0.125
G3 X42.1671 Y12.6767 I-0.125 J0
G1 X41.4541 Y16.9548
G1 X41.413 Y17.2014
G1 X40.6321 Y21.8867
G1 X40.591 Y22.1333
G1 X39.8101 Y26.8187
G1 X39.769 Y27.0653
G1 X39.6671 Y27.6767
G3 X39.5438 Y27.7812 I-0.1233 J-0.0205
G1 X37.7938 Y27.7812
G1 X37.7938 Y28.1562
G3 X37.6688 Y28.2812 I-0.125 J0
G1 X36.9188 Y28.2812
G3 X36.7938 Y28.1562 I0 J-0.125
G1 X36.7938 Y27.7812
G1 X36.4821 Y27.7812
G1 X36.2321 Y27.7812
G1 X31.4821 Y27.7812
G1 X31.2321 Y27.7812
G1 X30.4188 Y27.7812
G3 X30.2938 Y27.6562 I0 J-0.125
G1 X30.2938 Y26.9062
G3 X30.3197 Y26.8301 I0.125 J0
G1 X30.3377 Y26.8065
G1 X30.3428 Y26.7943
G1 X30.3445 Y26.7812
G1 X30.3428 Y26.768
G1 X30.3377 Y26.7558
G1 X30.3297 Y26.7453
G1 X30.3192 Y26.7373
G1 X30.3069 Y26.7322
G1 X30.2938 Y26.7305
G1 X30.2807 Y26.7322
G1 X30.2685 Y26.7373
G1 X30.2449 Y26.7553
G3 X30.1688 Y26.7812 I-0.0761 J-0.0992
G1 X29.9188 Y26.7812
G3 X29.8427 Y26.7553 I0 J-0.125
G1 X29.8192 Y26.7373
G1 X29.8069 Y26.7322
G1 X29.7938 Y26.7305
G1 X29.7807 Y26.7322
G1 X29.7685 Y26.7373
G1 X29.758 Y26.7453
G1 X29.7499 Y26.7558
G1 X29.7448 Y26.768
G1 X29.7431 Y26.7812
G1 X29.7448 Y26.7943
G1 X29.7499 Y26.8065
G1 X29.768 Y26.8301
G3 X29.7938 Y26.9062 I-0.0992 J0.0761
G1 X29.7938 Y27.6562
G3 X29.6688 Y27.7812 I-0.125 J0
G1 X28.5855 Y27.7812
G1 X28.3355 Y27.7812
G1 X23.2938 Y27.7812
G1 X23.2938 Y28.1562
G3 X23.1688 Y28.2812 I-0.125 J0
G1 X22.4188 Y28.2812
G3 X22.2938 Y28.1562 I0 J-0.125
G1 X22.2938 Y27.7812
G1 X20.5438 Y27.7812
G3 X20.4205 Y27.6767 I0 J-0.125
G1 Z-0.35 F30
G1 X20.3794 Y27.4301 F25
G1 X19.5985 Y22.7447
G1 X19.5574 Y22.4981
G1 X18.7765 Y17.8128
G1 X18.7354 Y17.5662
G1 X17.9545 Y12.8808
G1 X17.9205 Y12.6767
G3 X17.9188 Y12.6562 I0.1233 J-0.0205
G3 X17.9208 Y12.6338 I0.125 J0
G3 X18.0438 Y12.5312 I0.123 J0.0223
G1 X19.0438 Y12.5312
G3 X19.1651 Y12.6258 I0 J0.125
G1 X19.9922 Y15.9344
G1 X20.0529 Y16.1769
G1 X21.2049 Y20.7851
G1 X21.2655 Y21.0276
G1 X22.4176 Y25.6358
G1 X22.4782 Y25.8783
G1 X22.5164 Y26.0312
G1 X27.1089 Y26.0312
G1 X27.3589 Y26.0312
G1 X32.1089 Y26.0312
G1 X32.3589 Y26.0312
G1 X37.1089 Y26.0312
G1 X37.3589 Y26.0312
G1 X37.5712 Y26.0312
G1 X38.6718 Y21.629
G1 X38.7324 Y21.3864
G1 X39.8845 Y16.7782
G1 X39.9451 Y16.5357
G1 X40.9226 Y12.6258
G3 X41.0438 Y12.5312 I0.1213 J0.0303
G1 X41.5979 Y12.5312
G1 X41.8479 Y12.5312
G1 X42.0438 Y12.5312
G3 X42.1688 Y12.6562 I0 J0.125
G3 X42.1671 Y12.6767 I-0.125 J0
G1 X41.4541 Y16.9548
G1 X41.413 Y17.2014
G1 X40.6321 Y21.8867
G1 X40.591 Y22.1333
G1 X39.8101 Y26.8187
G1 X39.769 Y27.0653
G1 X39.6671 Y27.6767
G3 X39.5438 Y27.7812 I-0.1233 J-0.0205
G1 X37.7938 Y27.7812
G1 X37.7938 Y28.1562
G3 X37.6688 Y28.2812 I-0.125 J0
G1 X36.9188 Y28.2812
G3 X36.7938 Y28.1562 I0 J-0.125
G1 X36.7938 Y27.7812
G1 X36.4821 Y27.7812
G1 X36.2321 Y27.7812
G1 X31.4821 Y27.7812
G1 X31.2321 Y27.7812
G1 X30.4188 Y27.7812
G3 X30.2938 Y27.6562 I0 J-0.125
G1 X30.2938 Y26.9062
G3 X30.3197 Y26.8301 I0.125 J0
G1 X30.3377 Y26.8065
G1 X30.3428 Y26.7943
G1 X30.3445 Y26.7812
G1 X30.3428 Y26.768
G1 X30.3377 Y26.7558
G1 X30.3297 Y26.7453
G1 X30.3192 Y26.7373
G1 X30.3069 Y26.7322
G1 X30.2938 Y26.7305
G1 X30.2807 Y26.7322
G1 X30.2685 Y26.7373
G1 X30.2449 Y26.7553
G3 X30.1688 Y26.7812 I-0.0761 J-0.0992
G1 X29.9188 Y26.7812
G3 X29.8427 Y26.7553 I0 J-0.125
G1 X29.8192 Y26.7373
G1 X29.8069 Y26.7322
G1 X29.7938 Y26.7305
G1 X29.7807 Y26.7322
G1 X29.7685 Y26.7373
G1 X29.758 Y26.7453
G1 X29.7499 Y26.7558
G1 X29.7448 Y26.768
G1 X29.7431 Y26.7812
G1 X29.7448 Y26.7943
G1 X29.7499 Y26.8065
G1 X29.768 Y26.8301
G3 X29.7938 Y26.9062 I-0.0992 J0.0761
G1 X29.7938 Y27.6562
G3 X29.6688 Y27.7812 I-0.125 J0
G1 X28.5855 Y27.7812
G1 X28.3355 Y27.7812
G1 X23.2938 Y27.7812
G1 X23.2938 Y28.1562
G3 X23.1688 Y28.2812 I-0.125 J0
G1 X22.4188 Y28.2812
G3 X22.2938 Y28.1562 I0 J-0.125
G1 X22.2938 Y27.7812
G1 X20.5438 Y27.7812
G3 X20.4205 Y27.6767 I0 J-0.125
G1 Z-0.4 F30
G1 X20.3794 Y27.4301 F25
G1 X19.5985 Y22.7447
G1 X19.5574 Y22.4981
G1 X18.7765 Y17.8128
G1 X18.7354 Y17.5662
G1 X17.9545 Y12.8808
G1 X17.9205 Y12.6767
G3 X17.9188 Y12.6562 I0.1233 J-0.0205
G3 X17.9208 Y12.6338 I0.125 J0
G3 X18.0438 Y12.5312 I0.123 J0.0223
G1 X19.0438 Y12.5312
G3 X19.1651 Y12.6258 I0 J0.125
G1 X19.9922 Y15.9344
G1 X20.0529 Y16.1769
G1 X21.2049 Y20.7851
G1 X21.2655 Y21.0276
G1 X22.4176 Y25.6358
G1 X22.4782 Y25.8783
G1 X22.5164 Y26.0312
G1 X27.1089 Y26.0312
G1 X27.3589 Y26.0312
G1 X32.1089 Y26.0312
G1 X32.3589 Y26.0312
G1 X37.1089 Y26.0312
G1 X37.3589 Y26.0312
G1 X37.5712 Y26.0312
G1 X38.6718 Y21.629
G1 X38.7324 Y21.3864
G1 X39.8845 Y16.7782
G1 X39.9451 Y16.5357
G1 X40.9226 Y12.6258
G3 X41.0438 Y12.5312 I0.1213 J0.0303
G1 X41.5979 Y12.5312
G1 X41.8479 Y12.5312
G1 X42.0438 Y12.5312
G3 X42.1688 Y12.6562 I0 J0.125
G3 X42.1671 Y12.6767 I-0.125 J0
G1 X41.4541 Y16.9548
G1 X41.413 Y17.2014
G1 X40.6321 Y21.8867
G1 X40.591 Y22.1333
G1 X39.8101 Y26.8187
G1 X39.769 Y27.0653
G1 X39.6671 Y27.6767
G3 X39.5438 Y27.7812 I-0.1233 J-0.0205
G1 X37.7938 Y27.7812
G1 X37.7938 Y28.1562
G3 X37.6688 Y28.2812 I-0.125 J0
G1 X36.9188 Y28.2812
G3 X36.7938 Y28.1562 I0 J-0.125
G1 X36.7938 Y27.7812
G1 X36.4821 Y27.7812
G1 X36.2321 Y27.7812
G1 X31.4821 Y27.7812
G1 X31.2321 Y27.7812
G1 X30.4188 Y27.7812
G3 X30.2938 Y27.6562 I0 J-0.125
G1 X30.2938 Y26.9062
G3 X30.3197 Y26.8301 I0.125 J0
G1 X30.3377 Y26.8065
G1 X30.3428 Y26.7943
G1 X30.3445 Y26.7812
G1 X30.3428 Y26.768
G1 X30.3377 Y26.7558
G1 X30.3297 Y26.7453
G1 X30.3192 Y26.7373
G1 X30.3069 Y26.7322
G1 X30.2938 Y26.7305
G1 X30.2807 Y26.7322
G1 X30.2685 Y26.7373
G1 X30.2449 Y26.7553
G3 X30.1688 Y26.7812 I-0.0761 J-0.0992
G1 X29.9188 Y26.7812
G3 X29.8427 Y26.7553 I0 J-0.125
G1 X29.8192 Y26.7373
G1 X29.8069 Y26.7322
G1 X29.7938 Y26.7305
G1 X29.7807 Y26.7322
G1 X29.7685 Y26.7373
G1 X29.758 Y26.7453
G1 X29.7499 Y26.7558
G1 X29.7448 Y26.768
G1 X29.7431 Y26.7812
G1 X29.7448 Y26.7943
G1 X29.7499 Y26.8065
G1 X29.768 Y26.8301
G3 X29.7938 Y26.9062 I-0.0992 J0.0761
G1 X29.7938 Y27.6562
G3 X29.6688 Y27.7812 I-0.125 J0
G1 X28.5855 Y27.7812
G1 X28.3355 Y27.7812
G1 X23.2938 Y27.7812
G1 X23.2938 Y28.1562
G3 X23.1688 Y28.2812 I-0.125 J0
G1 X22.4188 Y28.2812
G3 X22.2938 Y28.1562 I0 J-0.125
G1 X22.2938 Y27.7812
G1 X20.5438 Y27.7812
G3 X20.4205 Y27.6767 I0 J-0.125
G1 Z-0.45 F30
G1 X20.3794 Y27.4301 F25
G1 X19.5985 Y22.7447
G1 X19.5574 Y22.4981
G1 X18.7765 Y17.8128
G1 X18.7354 Y17.5662
G1 X17.9545 Y12.8808
G1 X17.9205 Y12.6767
G3 X17.9188 Y12.6562 I0.1233 J-0.0205
G3 X17.9208 Y12.6338 I0.125 J0
G3 X18.0438 Y12.5312 I0.123 J0.0223
G1 X19.0438 Y12.5312
G3 X19.1651 Y12.6258 I0 J0.125
G1 X19.9922 Y15.9344
G1 X20.0529 Y16.1769
G1 X21.2049 Y20.7851
G1 X21.2655 Y21.0276
G1 X22.4176 Y25.6358
G1 X22.4782 Y25.8783
G1 X22.5164 Y26.0312
G1 X27.1089 Y26.0312
G1 X27.3589 Y26.0312
G1 X32.1089 Y26.0312
G1 X32.3589 Y26.0312
G1 X37.1089 Y26.0312
G1 X37.3589 Y26.0312
G1 X37.5712 Y26.0312
G1 X38.6718 Y21.629
G1 X38.7324 Y21.3864
G1 X39.8845 Y16.7782
G1 X39.9451 Y16.5357
G1 X40.9226 Y12.6258
G3 X41.0438 Y12.5312 I0.1213 J0.0303
G1 X41.5979 Y12.5312
G1 X41.8479 Y12.5312
G1 X42.0438 Y12.5312
G3 X42.1688 Y12.6562 I0 J0.125
G3 X42.1671 Y12.6767 I-0.125 J0
G1 X41.4541 Y16.9548
G1 X41.413 Y17.2014
G1 X40.6321 Y21.8867
G1 X40.591 Y22.1333
G1 X39.8101 Y26.8187
G1 X39.769 Y27.0653
G1 X39.6671 Y27.6767
G3 X39.5438 Y27.7812 I-0.1233 J-0.0205
G1 X37.7938 Y27.7812
G1 X37.7938 Y28.1562
G3 X37.6688 Y28.2812 I-0.125 J0
G1 X36.9188 Y28.2812
G3 X36.7938 Y28.1562 I0 J-0.125
G1 X36.7938 Y27.7812
G1 X36.4821 Y27.7812
G1 X36.2321 Y27.7812
G1 X31.4821 Y27.7812
G1 X31.2321 Y27.7812
G1 X30.4188 Y27.7812
G3 X30.2938 Y27.6562 I0 J-0.125
G1 X30.2938 Y26.9062
G3 X30.3197 Y26.8301 I0.125 J0
G1 X30.3377 Y26.8065
G1 X30.3428 Y26.7943
G1 X30.3445 Y26.7812
G1 X30.3428 Y26.768
G1 X30.3377 Y26.7558
G1 X30.3297 Y26.7453
G1 X30.3192 Y26.7373
G1 X30.3069 Y26.7322
G1 X30.2938 Y26.7305
G1 X30.2807 Y26.7322
G1 X30.2685 Y26.7373
G1 X30.2449 Y26.7553
G3 X30.1688 Y26.7812 I-0.0761 J-0.0992
G1 X29.9188 Y26.7812
G3 X29.8427 Y26.7553 I0 J-0.125
G1 X29.8192 Y26.7373
G1 X29.8069 Y26.7322
G1 X29.7938 Y26.7305
G1 X29.7807 Y26.7322
G1 X29.7685 Y26.7373
G1 X29.758 Y26.7453
G1 X29.7499 Y26.7558
G1 X29.7448 Y26.768
G1 X29.7431 Y26.7812
G1 X29.7448 Y26.7943
G1 X29.7499 Y26.8065
G1 X29.768 Y26.8301
G3 X29.7938 Y26.9062 I-0.0992 J0.0761
G1 X29.7938 Y27.6562
G3 X29.6688 Y27.7812 I-0.125 J0
G1 X28.5855 Y27.7812
G1 X28.3355 Y27.7812
G1 X23.2938 Y27.7812
G1 X23.2938 Y28.1562
G3 X23.1688 Y28.2812 I-0.125 J0
G1 X22.4188 Y28.2812
G3 X22.2938 Y28.1562 I0 J-0.125
G1 X22.2938 Y27.7812
G1 X20.5438 Y27.7812
G3 X20.4205 Y27.6767 I0 J-0.125
G1 Z-0.5 F30
G1 X20.3794 Y27.4301 F25
G1 X19.5985 Y22.7447
G1 X19.5574 Y22.4981
G1 X18.7765 Y17.8128
G1 X18.7354 Y17.5662
G1 X17.9545 Y12.8808
G1 X17.9205 Y12.6767
G3 X17.9188 Y12.6562 I0.1233 J-0.0205
G3 X17.9208 Y12.6338 I0.125 J0
G3 X18.0438 Y12.5312 I0.123 J0.0223
G1 X19.0438 Y12.5312
G3 X19.1651 Y12.6258 I0 J0.125
G1 X19.9922 Y15.9344
G1 X20.0529 Y16.1769
G1 X21.2049 Y20.7851
G1 X21.2655 Y21.0276
G1 X22.4176 Y25.6358
G1 X22.4782 Y25.8783
G1 X22.5164 Y26.0312
G1 X27.1089 Y26.0312
G1 X27.3589 Y26.0312
G1 X32.1089 Y26.0312
G1 X32.3589 Y26.0312
G1 X37.1089 Y26.0312
G1 X37.3589 Y26.0312
G1 X37.5712 Y26.0312
G1 X38.6718 Y21.629
G1 X38.7324 Y21.3864
G1 X39.8845 Y16.7782
G1 X39.9451 Y16.5357
G1 X40.9226 Y12.6258
G3 X41.0438 Y12.5312 I0.1213 J0.0303
G1 X41.5979 Y12.5312
G1 X41.8479 Y12.5312
G1 X42.0438 Y12.5312
G3 X42.1688 Y12.6562 I0 J0.125
G3 X42.1671 Y12.6767 I-0.125 J0
G1 X41.4541 Y16.9548
G1 X41.413 Y17.2014
G1 X40.6321 Y21.8867
G1 X40.591 Y22.1333
G1 X39.8101 Y26.8187
G1 X39.769 Y27.0653
G1 X39.6671 Y27.6767
G3 X39.5438 Y27.7812 I-0.1233 J-0.0205
G1 X37.7938 Y27.7812
G1 X37.7938 Y28.1562
G3 X37.6688 Y28.2812 I-0.125 J0
G1 X36.9188 Y28.2812
G3 X36.7938 Y28.1562 I0 J-0.125
G1 X36.7938 Y27.7812
G1 X36.4821 Y27.7812
G1 X36.2321 Y27.7812
G1 X31.4821 Y27.7812
G1 X31.2321 Y27.7812
G1 X30.4188 Y27.7812
G3 X30.2938 Y27.6562 I0 J-0.125
G1 X30.2938 Y26.9062
G3 X30.3197 Y26.8301 I0.125 J0
G1 X30.3377 Y26.8065
G1 X30.3428 Y26.7943
G1 X30.3445 Y26.7812
G1 X30.3428 Y26.768
G1 X30.3377 Y26.7558
G1 X30.3297 Y26.7453
G1 X30.3192 Y26.7373
G1 X30.3069 Y26.7322
G1 X30.2938 Y26.7305
G1 X30.2807 Y26.7322
G1 X30.2685 Y26.7373
G1 X30.2449 Y26.7553
G3 X30.1688 Y26.7812 I-0.0761 J-0.0992
G1 X29.9188 Y26.7812
G3 X29.8427 Y26.7553 I0 J-0.125
G1 X29.8192 Y26.7373
G1 X29.8069 Y26.7322
G1 X29.7938 Y26.7305
G1 X29.7807 Y26.7322
G1 X29.7685 Y26.7373
G1 X29.758 Y26.7453
G1 X29.7499 Y26.7558
G1 X29.7448 Y26.768
G1 X29.7431 Y26.7812
G1 X29.7448 Y26.7943
G1 X29.7499 Y26.8065
G1 X29.768 Y26.8301
G3 X29.7938 Y26.9062 I-0.0992 J0.0761
G1 X29.7938 Y27.6562
G3 X29.6688 Y27.7812 I-0.125 J0
G1 X28.5855 Y27.7812
G1 X28.3355 Y27.7812
G1 X23.2938 Y27.7812
G1 X23.2938 Y28.1562
G3 X23.1688 Y28.2812 I-0.125 J0
G1 X22.4188 Y28.2812
G3 X22.2938 Y28.1562 I0 J-0.125
G1 X22.2938 Y27.7812
G1 X20.5438 Y27.7812
G3 X20.4205 Y27.6767 I0 J-0.125
G1 Z-0.55 F30
G1 Z-0.5 F30
G1 X20.3794 Y27.4301 F25
G1 Z-0.55 F30
G1 X19.5985 Y22.7447 F25
G1 Z-0.5 F30
G1 X19.5574 Y22.4981 F25
G1 Z-0.55 F30
G1 X18.7765 Y17.8128 F25
G1 Z-0.5 F30
G1 X18.7354 Y17.5662 F25
G1 Z-0.55 F30
G1 X17.9545 Y12.8808 F25
G1 Z-0.5 F30
G1 X17.9205 Y12.6767 F25
G3 X17.9188 Y12.6562 I0.1233 J-0.0205
G3 X17.9208 Y12.6338 I0.125 J0
G1 Z-0.55 F30
G3 X18.0438 Y12.5312 I0.123 J0.0223 F25
G1 X19.0438 Y12.5312
G3 X19.1651 Y12.6258 I0 J0.125
G1 X19.9922 Y15.9344
G1 Z-0.5 F30
G1 X20.0529 Y16.1769 F25
G1 Z-0.55 F30
G1 X21.2049 Y20.7851 F25
G1 Z-0.5 F30
G1 X21.2655 Y21.0276 F25
G1 Z-0.55 F30
G1 X22.4176 Y25.6358 F25
G1 Z-0.5 F30
G1 X22.4782 Y25.8783 F25
G1 Z-0.55 F30
G1 X22.5164 Y26.0312 F25
G1 X27.1089 Y26.0312
G1 Z-0.5 F30
G1 X27.3589 Y26.0312 F25
G1 Z-0.55 F30
G1 X32.1089 Y26.0312 F25
G1 Z-0.5 F30
G1 X32.3589 Y26.0312 F25
G1 Z-0.55 F30
G1 X37.1089 Y26.0312 F25
G1 Z-0.5 F30
G1 X37.3589 Y26.0312 F25
G1 Z-0.55 F30
G1 X37.5712 Y26.0312 F25
G1 X38.6718 Y21.629
G1 Z-0.5 F30
G1 X38.7324 Y21.3864 F25
G1 Z-0.55 F30
G1 X39.8845 Y16.7782 F25
G1 Z-0.5 F30
G1 X39.9451 Y16.5357 F25
G1 Z-0.55 F30
G1 X40.9226 Y12.6258 F25
G3 X41.0438 Y12.5312 I0.1213 J0.0303
G1 X41.5979 Y12.5312
G1 Z-0.5 F30
G1 X41.8479 Y12.5312 F25
G1 Z-0.55 F30
G1 X42.0438 Y12.5312 F25
G3 X42.1688 Y12.6562 I0 J0.125
G3 X42.1671 Y12.6767 I-0.125 J0
G1 X41.4541 Y16.9548
G1 Z-0.5 F30
G1 X41.413 Y17.2014 F25
G1 Z-0.55 F30
G1 X40.6321 Y21.8867 F25
G1 Z-0.5 F30
G1 X40.591 Y22.1333 F25
G1 Z-0.55 F30
G1 X39.8101 Y26.8187 F25
G1 Z-0.5 F30
G1 X39.769 Y27.0653 F25
G1 Z-0.55 F30
G1 X39.6671 Y27.6767 F25
G3 X39.5438 Y27.7812 I-0.1233 J-0.0205
G1 X37.7938 Y27.7812
G1 X37.7938 Y28.1562
G3 X37.6688 Y28.2812 I-0.125 J0
G1 X36.9188 Y28.2812
G3 X36.7938 Y28.1562 I0 J-0.125
G1 X36.7938 Y27.7812
G1 X36.4821 Y27.7812
G1 Z-0.5 F30
G1 X36.2321 Y27.7812 F25
G1 Z-0.55 F30
G1 X31.4821 Y27.7812 F25
G1 Z-0.5 F30
G1 X31.2321 Y27.7812 F25
G1 Z-0.55 F30
G1 X30.4188 Y27.7812 F25
G3 X30.2938 Y27.6562 I0 J-0.125
G1 X30.2938 Y26.9062
G3 X30.3197 Y26.8301 I0.125 J0
G1 X30.3377 Y26.8065
G1 X30.3428 Y26.7943
G1 X30.3445 Y26.7812
G1 X30.3428 Y26.768
G1 X30.3377 Y26.7558
G1 X30.3297 Y26.7453
G1 X30.3192 Y26.7373
G1 X30.3069 Y26.7322
G1 X30.2938 Y26.7305
G1 X30.2807 Y26.7322
G1 X30.2685 Y26.7373
G1 X30.2449 Y26.7553
G3 X30.1688 Y26.7812 I-0.0761 J-0.0992
G1 X29.9188 Y26.7812
G3 X29.8427 Y26.7553 I0 J-0.125
G1 X29.8192 Y26.7373
G1 X29.8069 Y26.7322
G1 X29.7938 Y26.7305
G1 X29.7807 Y26.7322
G1 X29.7685 Y26.7373
G1 X29.758 Y26.7453
G1 X29.7499 Y26.7558
G1 X29.7448 Y26.768
G1 X29.7431 Y26.7812
G1 X29.7448 Y26.7943
G1 X29.7499 Y26.8065
G1 X29.768 Y26.8301
G3 X29.7938 Y26.9062 I-0.0992 J0.0761
G1 X29.7938 Y27.6562
G3 X29.6688 Y27.7812 I-0.125 J0
G1 X28.5855 Y27.7812
G1 Z-0.5 F30
G1 X28.3355 Y27.7812 F25
G1 Z-0.55 F30
G1 X23.2938 Y27.7812 F25
G1 X23.2938 Y28.1562
G3 X23.1688 Y28.2812 I-0.125 J0
G1 X22.4188 Y28.2812
G3 X22.2938 Y28.1562 I0 J-0.125
G1 X22.2938 Y27.7812
G1 X20.5438 Y27.7812
G3 X20.4205 Y27.6767 I0 J-0.125
G1 Z-0.6 F30
G1 Z-0.5 F30
G1 X20.3794 Y27.4301 F25
G1 Z-0.6 F30
G1 X19.5985 Y22.7447 F25
G1 Z-0.5 F30
G1 X19.5574 Y22.4981 F25
G1 Z-0.6 F30
G1 X18.7765 Y17.8128 F25
G1 Z-0.5 F30
G1 X18.7354 Y17.5662 F25
G1 Z-0.6 F30
G1 X17.9545 Y12.8808 F25
G1 Z-0.5 F30
G1 X17.9205 Y12.6767 F25
G3 X17.9188 Y12.6562 I0.1233 J-0.0205
G3 X17.9208 Y12.6338 I0.125 J0
G1 Z-0.6 F30
G3 X18.0438 Y12.5312 I0.123 J0.0223 F25
G1 X19.0438 Y12.5312
G3 X19.1651 Y12.6258 I0 J0.125
G1 X19.9922 Y15.9344
G1 Z-0.5 F30
G1 X20.0529 Y16.1769 F25
G1 Z-0.6 F30
G1 X21.2049 Y20.7851 F25
G1 Z-0.5 F30
G1 X21.2655 Y21.0276 F25
G1 Z-0.6 F30
G1 X22.4176 Y25.6358 F25
G1 Z-0.5 F30
G1 X22.4782 Y25.8783 F25
G1 Z-0.6 F30
G1 X22.5164 Y26.0312 F25
G1 X27.1089 Y26.0312
G1 Z-0.5 F30
G1 X27.3589 Y26.0312 F25
G1 Z-0.6 F30
G1 X32.1089 Y26.0312 F25
G1 Z-0.5 F30
G1 X32.3589 Y26.0312 F25
G1 Z-0.6 F30
G1 X37.1089 Y26.0312 F25
G1 Z-0.5 F30
G1 X37.3589 Y26.0312 F25
G1 Z-0.6 F30
G1 X37.5712 Y26.0312 F25
G1 X38.6718 Y21.629
G1 Z-0.5 F30
G1 X38.7324 Y21.3864 F25
G1 Z-0.6 F30
G1 X39.8845 Y16.7782 F25
G1 Z-0.5 F30
G1 X39.9451 Y16.5357 F25
G1 Z-0.6 F30
G1 X40.9226 Y12.6258 F25
G3 X41.0438 Y12.5312 I0.1213 J0.0303
G1 X41.5979 Y12.5312
G1 Z-0.5 F30
G1 X41.8479 Y12.5312 F25
G1 Z-0.6 F30
G1 X42.0438 Y12.5312 F25
G3 X42.1688 Y12.6562 I0 J0.125
G3 X42.1671 Y12.6767 I-0.125 J0
G1 X41.4541 Y16.9548
G1 Z-0.5 F30
G1 X41.413 Y17.2014 F25
G1 Z-0.6 F30
G1 X40.6321 Y21.8867 F25
G1 Z-0.5 F30
G1 X40.591 Y22.1333 F25
G1 Z-0.6 F30
G1 X39.8101 Y26.8187 F25
G1 Z-0.5 F30
G1 X39.769 Y27.0653 F25
G1 Z-0.6 F30
G1 X39.6671 Y27.6767 F25
G3 X39.5438 Y27.7812 I-0.1233 J-0.0205
G1 X37.7938 Y27.7812
G1 X37.7938 Y28.1562
G3 X37.6688 Y28.2812 I-0.125 J0
G1 X36.9188 Y28.2812
G3 X36.7938 Y28.1562 I0 J-0.125
G1 X36.7938 Y27.7812
G1 X36.4821 Y27.7812
G1 Z-0.5 F30
G1 X36.2321 Y27.7812 F25
G1 Z-0.6 F30
G1 X31.4821 Y27.7812 F25
G1 Z-0.5 F30
G1 X31.2321 Y27.7812 F25
G1 Z-0.6 F30
G1 X30.4188 Y27.7812 F25
G3 X30.2938 Y27.6562 I0 J-0.125
G1 X30.2938 Y26.9062
G3 X30.3197 Y26.8301 I0.125 J0
G1 X30.3377 Y26.8065
G1 X30.3428 Y26.7943
G1 X30.3445 Y26.7812
G1 X30.3428 Y26.768
G1 X30.3377 Y26.7558
G1 X30.3297 Y26.7453
G1 X30.3192 Y26.7373
G1 X30.3069 Y26.7322
G1 X30.2938 Y26.7305
G1 X30.2807 Y26.7322
G1 X30.2685 Y26.7373
G1 X30.2449 Y26.7553
G3 X30.1688 Y26.7812 I-0.0761 J-0.0992
G1 X29.9188 Y26.7812
G3 X29.8427 Y26.7553 I0 J-0.125
G1 X29.8192 Y26.7373
G1 X29.8069 Y26.7322
G1 X29.7938 Y26.7305
G1 X29.7807 Y26.7322
G1 X29.7685 Y26.7373
G1 X29.758 Y26.7453
G1 X29.7499 Y26.7558
G1 X29.7448 Y26.768
G1 X29.7431 Y26.7812
G1 X29.7448 Y26.7943
G1 X29.7499 Y26.8065
G1 X29.768 Y26.8301
G3 X29.7938 Y26.9062 I-0.0992 J0.0761
G1 X29.7938 Y27.6562
G3 X29.6688 Y27.7812 I-0.125 J0
G1 X28.5855 Y27.7812
G1 Z-0.5 F30
G1 X28.3355 Y27.7812 F25
G1 Z-0.6 F30
G1 X23.2938 Y27.7812 F25
G1 X23.2938 Y28.1562
G3 X23.1688 Y28.2812 I-0.125 J0
G1 X22.4188 Y28.2812
G3 X22.2938 Y28.1562 I0 J-0.125
G1 X22.2938 Y27.7812
G1 X20.5438 Y27.7812
G3 X20.4205 Y27.6767 I0 J-0.125
G1 Z-0.65 F30
G1 Z-0.5 F30
G1 X20.3794 Y27.4301 F25
G1 Z-0.65 F30
G1 X19.5985 Y22.7447 F25
G1 Z-0.5 F30
G1 X19.5574 Y22.4981 F25
G1 Z-0.65 F30
G1 X18.7765 Y17.8128 F25
G1 Z-0.5 F30
G1 X18.7354 Y17.5662 F25
G1 Z-0.65 F30
G1 X17.9545 Y12.8808 F25
G1 Z-0.5 F30
G1 X17.9205 Y12.6767 F25
G3 X17.9188 Y12.6562 I0.1233 J-0.0205
G3 X17.9208 Y12.6338 I0.125 J0
G1 Z-0.65 F30
G3 X18.0438 Y12.5312 I0.123 J0.0223 F25
G1 X19.0438 Y12.5312
G3 X19.1651 Y12.6258 I0 J0.125
G1 X19.9922 Y15.9344
G1 Z-0.5 F30
G1 X20.0529 Y16.1769 F25
G1 Z-0.65 F30
G1 X21.2049 Y20.7851 F25
G1 Z-0.5 F30
G1 X21.2655 Y21.0276 F25
G1 Z-0.65 F30
G1 X22.4176 Y25.6358 F25
G1 Z-0.5 F30
G1 X22.4782 Y25.8783 F25
G1 Z-0.65 F30
G1 X22.5164 Y26.0312 F25
G1 X27.1089 Y26.0312
G1 Z-0.5 F30
G1 X27.3589 Y26.0312 F25
G1 Z-0.65 F30
G1 X32.1089 Y26.0312 F25
G1 Z-0.5 F30
G1 X32.3589 Y26.0312 F25
G1 Z-0.65 F30
G1 X37.1089 Y26.0312 F25
G1 Z-0.5 F30
G1 X37.3589 Y26.0312 F25
G1 Z-0.65 F30
G1 X37.5712 Y26.0312 F25
G1 X38.6718 Y21.629
G1 Z-0.5 F30
G1 X38.7324 Y21.3864 F25
G1 Z-0.65 F30
G1 X39.8845 Y16.7782 F25
G1 Z-0.5 F30
G1 X39.9451 Y16.5357 F25
G1 Z-0.65 F30
G1 X40.9226 Y12.6258 F25
G3 X41.0438 Y12.5312 I0.1213 J0.0303
G1 X41.5979 Y12.5312
G1 Z-0.5 F30
G1 X41.8479 Y12.5312 F25
G1 Z-0.65 F30
G1 X42.0438 Y12.5312 F25
G3 X42.1688 Y12.6562 I0 J0.125
G3 X42.1671 Y12.6767 I-0.125 J0
G1 X41.4541 Y16.9548
G1 Z-0.5 F30
G1 X41.413 Y17.2014 F25
G1 Z-0.65 F30
G1 X40.6321 Y21.8867 F25
G1 Z-0.5 F30
G1 X40.591 Y22.1333 F25
G1 Z-0.65 F30
G1 X39.8101 Y26.8187 F25
G1 Z-0.5 F30
G1 X39.769 Y27.0653 F25
G1 Z-0.65 F30
G1 X39.6671 Y27.6767 F25
G3 X39.5438 Y27.7812 I-0.1233 J-0.0205
G1 X37.7938 Y27.7812
G1 X37.7938 Y28.1562
G3 X37.6688 Y28.2812 I-0.125 J0
G1 X36.9188 Y28.2812
G3 X36.7938 Y28.1562 I0 J-0.125
G1 X36.7938 Y27.7812
G1 X36.4821 Y27.7812
G1 Z-0.5 F30
G1 X36.2321 Y27.7812 F25
G1 Z-0.65 F30
G1 X31.4821 Y27.7812 F25
G1 Z-0.5 F30
G1 X31.2321 Y27.7812 F25
G1 Z-0.65 F30
G1 X30.4188 Y27.7812 F25
G3 X30.2938 Y27.6562 I0 J-0.125
G1 X30.2938 Y26.9062
G3 X30.3197 Y26.8301 I0.125 J0
G1 X30.3377 Y26.8065
G1 X30.3428 Y26.7943
G1 X30.3445 Y26.7812
G1 X30.3428 Y26.768
G1 X30.3377 Y26.7558
G1 X30.3297 Y26.7453
G1 X30.3192 Y26.7373
G1 X30.3069 Y26.7322
G1 X30.2938 Y26.7305
G1 X30.2807 Y26.7322
G1 X30.2685 Y26.7373
G1 X30.2449 Y26.7553
G3 X30.1688 Y26.7812 I-0.0761 J-0.0992
G1 X29.9188 Y26.7812
G3 X29.8427 Y26.7553 I0 J-0.125
G1 X29.8192 Y26.7373
G1 X29.8069 Y26.7322
G1 X29.7938 Y26.7305
G1 X29.7807 Y26.7322
G1 X29.7685 Y26.7373
G1 X29.758 Y26.7453
G1 X29.7499 Y26.7558
G1 X29.7448 Y26.768
G1 X29.7431 Y26.7812
G1 X29.7448 Y26.7943
G1 X29.7499 Y26.8065
G1 X29.768 Y26.8301
G3 X29.7938 Y26.9062 I-0.0992 J0.0761
G1 X29.7938 Y27.6562
G3 X29.6688 Y27.7812 I-0.125 J0
G1 X28.5855 Y27.7812
G1 Z-0.5 F30
G1 X28.3355 Y27.7812 F25
G1 Z-0.65 F30
G1 X23.2938 Y27.7812 F25
G1 X23.2938 Y28.1562
G3 X23.1688 Y28.2812 I-0.125 J0
G1 X22.4188 Y28.2812
G3 X22.2938 Y28.1562 I0 J-0.125
G1 X22.2938 Y27.7812
G1 X20.5438 Y27.7812
G3 X20.4205 Y27.6767 I0 J-0.125
G1 Z-0.7 F30
G1 Z-0.5 F30
G1 X20.3794 Y27.4301 F25
G1 Z-0.7 F30
G1 X19.5985 Y22.7447 F25
G1 Z-0.5 F30
G1 X19.5574 Y22.4981 F25
G1 Z-0.7 F30
G1 X18.7765 Y17.8128 F25
G1 Z-0.5 F30
G1 X18.7354 Y17.5662 F25
G1 Z-0.7 F30
G1 X17.9545 Y12.8808 F25
G1 Z-0.5 F30
G1 X17.9205 Y12.6767 F25
G3 X17.9188 Y12.6562 I0.1233 J-0.0205
G3 X17.9208 Y12.6338 I0.125 J0
G1 Z-0.7 F30
G3 X18.0438 Y12.5312 I0.123 J0.0223 F25
G1 X19.0438 Y12.5312
G3 X19.1651 Y12.6258 I0 J0.125
G1 X19.9922 Y15.9344
G1 Z-0.5 F30
G1 X20.0529 Y16.1769 F25
G1 Z-0.7 F30
G1 X21.2049 Y20.7851 F25
G1 Z-0.5 F30
G1 X21.2655 Y21.0276 F25
G1 Z-0.7 F30
G1 X22.4176 Y25.6358 F25
G1 Z-0.5 F30
G1 X22.4782 Y25.8783 F25
G1 Z-0.7 F30
G1 X22.5164 Y26.0312 F25
G1 X27.1089 Y26.0312
G1 Z-0.5 F30
G1 X27.3589 Y26.0312 F25
G1 Z-0.7 F30
G1 X32.1089 Y26.0312 F25
G1 Z-0.5 F30
G1 X32.3589 Y26.0312 F25
G1 Z-0.7 F30
G1 X37.1089 Y26.0312 F25
G1 Z-0.5 F30
G1 X37.3589 Y26.0312 F25
G1 Z-0.7 F30
G1 X37.5712 Y26.0312 F25
G1 X38.6718 Y21.629
G1 Z-0.5 F30
G1 X38.7324 Y21.3864 F25
G1 Z-0.7 F30
G1 X39.8845 Y16.7782 F25
G1 Z-0.5 F30
G1 X39.9451 Y16.5357 F25
G1 Z-0.7 F30
G1 X40.9226 Y12.6258 F25
G3 X41.0438 Y12.5312 I0.1213 J0.0303
G1 X41.5979 Y12.5312
G1 Z-0.5 F30
G1 X41.8479 Y12.5312 F25
G1 Z-0.7 F30
G1 X42.0438 Y12.5312 F25
G3 X42.1688 Y12.6562 I0 J0.125
G3 X42.1671 Y12.6767 I-0.125 J0
G1 X41.4541 Y16.9548
G1 Z-0.5 F30
G1 X41.413 Y17.2014 F25
G1 Z-0.7 F30
G1 X40.6321 Y21.8867 F25
G1 Z-0.5 F30
G1 X40.591 Y22.1333 F25
G1 Z-0.7 F30
G1 X39.8101 Y26.8187 F25
G1 Z-0.5 F30
G1 X39.769 Y27.0653 F25
G1 Z-0.7 F30
G1 X39.6671 Y27.6767 F25
G3 X39.5438 Y27.7812 I-0.1233 J-0.0205
G1 X37.7938 Y27.7812
G1 X37.7938 Y28.1562
G3 X37.6688 Y28.2812 I-0.125 J0
G1 X36.9188 Y28.2812
G3 X36.7938 Y28.1562 I0 J-0.125
G1 X36.7938 Y27.7812
G1 X36.4821 Y27.7812
G1 Z-0.5 F30
G1 X36.2321 Y27.7812 F25
G1 Z-0.7 F30
G1 X31.4821 Y27.7812 F25
G1 Z-0.5 F30
G1 X31.2321 Y27.7812 F25
G1 Z-0.7 F30
G1 X30.4188 Y27.7812 F25
G3 X30.2938 Y27.6562 I0 J-0.125
G1 X30.2938 Y26.9062
G3 X30.3197 Y26.8301 I0.125 J0
G1 X30.3377 Y26.8065
G1 X30.3428 Y26.7943
G1 X30.3445 Y26.7812
G1 X30.3428 Y26.768
G1 X30.3377 Y26.7558
G1 X30.3297 Y26.7453
G1 X30.3192 Y26.7373
G1 X30.3069 Y26.7322
G1 X30.2938 Y26.7305
G1 X30.2807 Y26.7322
G1 X30.2685 Y26.7373
G1 X30.2449 Y26.7553
G3 X30.1688 Y26.7812 I-0.0761 J-0.0992
G1 X29.9188 Y26.7812
G3 X29.8427 Y26.7553 I0 J-0.125
G1 X29.8192 Y26.7373
G1 X29.8069 Y26.7322
G1 X29.7938 Y26.7305
G1 X29.7807 Y26.7322
G1 X29.7685 Y26.7373
G1 X29.758 Y26.7453
G1 X29.7499 Y26.7558
G1 X29.7448 Y26.768
G1 X29.7431 Y26.7812
G1 X29.7448 Y26.7943
G1 X29.7499 Y26.8065
G1 X29.768 Y26.8301
G3 X29.7938 Y26.9062 I-0.0992 J0.0761
G1 X29.7938 Y27.6562
G3 X29.6688 Y27.7812 I-0.125 J0
G1 X28.5855 Y27.7812
G1 Z-0.5 F30
G1 X28.3355 Y27.7812 F25
G1 Z-0.7 F30
G1 X23.2938 Y27.7812 F25
G1 X23.2938 Y28.1562
G3 X23.1688 Y28.2812 I-0.125 J0
G1 X22.4188 Y28.2812
G3 X22.2938 Y28.1562 I0 J-0.125
G1 X22.2938 Y27.7812
G1 X20.5438 Y27.7812
G3 X20.4205 Y27.6767 I0 J-0.125
G1 Z-0.75 F30
G1 Z-0.5 F30
G1 X20.3794 Y27.4301 F25
G1 Z-0.75 F30
G1 X19.5985 Y22.7447 F25
G1 Z-0.5 F30
G1 X19.5574 Y22.4981 F25
G1 Z-0.75 F30
G1 X18.7765 Y17.8128 F25
G1 Z-0.5 F30
G1 X18.7354 Y17.5662 F25
G1 Z-0.75 F30
G1 X17.9545 Y12.8808 F25
G1 Z-0.5 F30
G1 X17.9205 Y12.6767 F25
G3 X17.9188 Y12.6562 I0.1233 J-0.0205
G3 X17.9208 Y12.6338 I0.125 J0
G1 Z-0.75 F30
G3 X18.0438 Y12.5312 I0.123 J0.0223 F25
G1 X19.0438 Y12.5312
G3 X19.1651 Y12.6258 I0 J0.125
G1 X19.9922 Y15.9344
G1 Z-0.5 F30
G1 X20.0529 Y16.1769 F25
G1 Z-0.75 F30
G1 X21.2049 Y20.7851 F25
G1 Z-0.5 F30
G1 X21.2655 Y21.0276 F25
G1 Z-0.75 F30
G1 X22.4176 Y25.6358 F25
G1 Z-0.5 F30
G1 X22.4782 Y25.8783 F25
G1 Z-0.75 F30
G1 X22.5164 Y26.0312 F25
G1 X27.1089 Y26.0312
G1 Z-0.5 F30
G1 X27.3589 Y26.0312 F25
G1 Z-0.75 F30
G1 X32.1089 Y26.0312 F25
G1 Z-0.5 F30
G1 X32.3589 Y26.0312 F25
G1 Z-0.75 F30
G1 X37.1089 Y26.0312 F25
G1 Z-0.5 F30
G1 X37.3589 Y26.0312 F25
G1 Z-0.75 F30
G1 X37.5712 Y26.0312 F25
G1 X38.6718 Y21.629
G1 Z-0.5 F30
G1 X38.7324 Y21.3864 F25
G1 Z-0.75 F30
G1 X39.8845 Y16.7782 F25
G1 Z-0.5 F30
G1 X39.9451 Y16.5357 F25
G1 Z-0.75 F30
G1 X40.9226 Y12.6258 F25
G3 X41.0438 Y12.5312 I0.1213 J0.0303
G1 X41.5979 Y12.5312
G1 Z-0.5 F30
G1 X41.8479 Y12.5312 F25
G1 Z-0.75 F30
G1 X42.0438 Y12.5312 F25
G3 X42.1688 Y12.6562 I0 J0.125
G3 X42.1671 Y12.6767 I-0.125 J0
G1 X41.4541 Y16.9548
G1 Z-0.5 F30
G1 X41.413 Y17.2014 F25
G1 Z-0.75 F30
G1 X40.6321 Y21.8867 F25
G1 Z-0.5 F30
G1 X40.591 Y22.1333 F25
G1 Z-0.75 F30
G1 X39.8101 Y26.8187 F25
G1 Z-0.5 F30
G1 X39.769 Y27.0653 F25
G1 Z-0.75 F30
G1 X39.6671 Y27.6767 F25
G3 X39.5438 Y27.7812 I-0.1233 J-0.0205
G1 X37.7938 Y27.7812
G1 X37.7938 Y28.1562
G3 X37.6688 Y28.2812 I-0.125 J0
G1 X36.9188 Y28.2812
G3 X36.7938 Y28.1562 I0 J-0.125
G1 X36.7938 Y27.7812
G1 X36.4821 Y27.7812
G1 Z-0.5 F30
G1 X36.2321 Y27.7812 F25
G1 Z-0.75 F30
G1 X31.4821 Y27.7812 F25
G1 Z-0.5 F30
G1 X31.2321 Y27.7812 F25
G1 Z-0.75 F30
G1 X30.4188 Y27.7812 F25
G3 X30.2938 Y27.6562 I0 J-0.125
G1 X30.2938 Y26.9062
G3 X30.3197 Y26.8301 I0.125 J0
G1 X30.3377 Y26.8065
G1 X30.3428 Y26.7943
G1 X30.3445 Y26.7812
G1 X30.3428 Y26.768
G1 X30.3377 Y26.7558
G1 X30.3297 Y26.7453
G1 X30.3192 Y26.7373
G1 X30.3069 Y26.7322
G1 X30.2938 Y26.7305
G1 X30.2807 Y26.7322
G1 X30.2685 Y26.7373
G1 X30.2449 Y26.7553
G3 X30.1688 Y26.7812 I-0.0761 J-0.0992
G1 X29.9188 Y26.7812
G3 X29.8427 Y26.7553 I0 J-0.125
G1 X29.8192 Y26.7373
G1 X29.8069 Y26.7322
G1 X29.7938 Y26.7305
G1 X29.7807 Y26.7322
G1 X29.7685 Y26.7373
G1 X29.758 Y26.7453
G1 X29.7499 Y26.7558
G1 X29.7448 Y26.768
G1 X29.7431 Y26.7812
G1 X29.7448 Y26.7943
G1 X29.7499 Y26.8065
G1 X29.768 Y26.8301
G3 X29.7938 Y26.9062 I-0.0992 J0.0761
G1 X29.7938 Y27.6562
G3 X29.6688 Y27.7812 I-0.125 J0
G1 X28.5855 Y27.7812
G1 Z-0.5 F30
G1 X28.3355 Y27.7812 F25
G1 Z-0.75 F30
G1 X23.2938 Y27.7812 F25
G1 X23.2938 Y28.1562
G3 X23.1688 Y28.2812 I-0.125 J0
G1 X22.4188 Y28.2812
G3 X22.2938 Y28.1562 I0 J-0.125
G1 X22.2938 Y27.7812
G1 X20.5438 Y27.7812
G3 X20.4205 Y27.6767 I0 J-0.125
G0 Z0.25
G0 X17.6707 Y43.9045
G1 Z-0.05 F30
G1 X17.6296 Y43.6579 F25
G1 X16.8487 Y38.9725
G1 X16.8076 Y38.7259
G1 X16.0267 Y34.0406
G1 X15.9856 Y33.794
G1 X15.2047 Y29.1086
G1 X15.1707 Y28.9045
G3 X15.169 Y28.8839 I0.1233 J-0.0205
G3 X15.171 Y28.8616 I0.125 J0
G3 X15.294 Y28.7589 I0.123 J0.0223
G1 X16.294 Y28.7589
G3 X16.4152 Y28.8536 I0 J0.125
G1 X17.2424 Y32.1622
G1 X17.303 Y32.4047
G1 X18.4551 Y37.0129
G1 X18.5157 Y37.2554
G1 X19.6677 Y41.8636
G1 X19.7284 Y42.1061
G1 X19.7666 Y42.2589
G1 X24.3591 Y42.2589
G1 X24.6091 Y42.2589
G1 X29.3591 Y42.2589
G1 X29.6091 Y42.2589
G1 X34.3591 Y42.2589
G1 X34.6091 Y42.2589
G1 X34.8214 Y42.2589
G1 X35.9219 Y37.8567
G1 X35.9826 Y37.6142
G1 X37.1346 Y33.006
G1 X37.1952 Y32.7635
G1 X38.1727 Y28.8536
G3 X38.294 Y28.7589 I0.1213 J0.0303
G1 X38.848 Y28.7589
G1 X39.098 Y28.7589
G1 X39.294 Y28.7589
G3 X39.419 Y28.8839 I0 J0.125
G3 X39.4173 Y28.9045 I-0.125 J0
G1 X38.7043 Y33.1826
G1 X38.6632 Y33.4292
G1 X37.8823 Y38.1145
G1 X37.8412 Y38.3611
G1 X37.0603 Y43.0465
G1 X37.0192 Y43.2931
G1 X36.9173 Y43.9045
G3 X36.794 Y44.0089 I-0.1233 J-0.0205
G1 X35.044 Y44.0089
G1 X35.044 Y44.3839
G3 X34.919 Y44.5089 I-0.125 J0
G1 X34.169 Y44.5089
G3 X34.044 Y44.3839 I0 J-0.125
G1 X34.044 Y44.0089
G1 X33.7322 Y44.0089
G1 X33.4822 Y44.0089
G1 X28.7322 Y44.0089
G1 X28.4822 Y44.0089
G1 X27.669 Y44.0089
G3 X27.544 Y43.8839 I0 J-0.125
G1 X27.544 Y43.1339
G3 X27.5698 Y43.0578 I0.125 J0
G1 X27.5879 Y43.0343
G1 X27.5929 Y43.0221
G1 X27.5947 Y43.0089
G1 X27.5929 Y42.9958
G1 X27.5879 Y42.9836
G1 X27.5798 Y42.9731
G1 X27.5693 Y42.965
G1 X27.5571 Y42.96
G1 X27.544 Y42.9582
G1 X27.5309 Y42.96
G1 X27.5186 Y42.965
G1 X27.4951 Y42.9831
G3 X27.419 Y43.0089 I-0.0761 J-0.0992
G1 X27.169 Y43.0089
G3 X27.0929 Y42.9831 I0 J-0.125
G1 X27.0693 Y42.965
G1 X27.0571 Y42.96
G1 X27.044 Y42.9582
G1 X27.0309 Y42.96
G1 X27.0186 Y42.965
G1 X27.0081 Y42.9731
G1 X27.0001 Y42.9836
G1 X26.995 Y42.9958
G1 X26.9933 Y43.0089
G1 X26.995 Y43.0221
G1 X27.0001 Y43.0343
G1 X27.0181 Y43.0578
G3 X27.044 Y43.1339 I-0.0992 J0.0761
G1 X27.044 Y43.8839
G3 X26.919 Y44.0089 I-0.125 J0
G1 X25.8356 Y44.0089
G1 X25.5856 Y44.0089
G1 X20.544 Y44.0089
G1 X20.544 Y44.3839
G3 X20.419 Y44.5089 I-0.125 J0
G1 X19.669 Y44.5089
G3 X19.544 Y44.3839 I0 J-0.125
G1 X19.544 Y44.0089
G1 X17.794 Y44.0089
G3 X17.6707 Y43.9045 I0 J-0.125
G1 Z-0.1 F30
G1 X17.6296 Y43.6579 F25
G1 X16.8487 Y38.9725
G1 X16.8076 Y38.7259
G1 X16.0267 Y34.0406
G1 X15.9856 Y33.794
G1 X15.2047 Y29.1086
G1 X15.1707 Y28.9045
G3 X15.169 Y28.8839 I0.1233 J-0.0205
G3 X15.171 Y28.8616 I0.125 J0
G3 X15.294 Y28.7589 I0.123 J0.0223
G1 X16.294 Y28.7589
G3 X16.4152 Y28.8536 I0 J0.125
G1 X17.2424 Y32.1622
G1 X17.303 Y32.4047
G1 X18.4551 Y37.0129
G1 X18.5157 Y37.2554
G1 X19.6677 Y41.8636
G1 X19.7284 Y42.1061
G1 X19.7666 Y42.2589
G1 X24.3591 Y42.2589
G1 X24.6091 Y42.2589
G1 X29.3591 Y42.2589
G1 X29.6091 Y42.2589
G1 X34.3591 Y42.2589
G1 X34.6091 Y42.2589
G1 X34.8214 Y42.2589
G1 X35.9219 Y37.8567
G1 X35.9826 Y37.6142
G1 X37.1346 Y33.006
G1 X37.1952 Y32.7635
G1 X38.1727 Y28.8536
G3 X38.294 Y28.7589 I0.1213 J0.0303
G1 X38.848 Y28.7589
G1 X39.098 Y28.7589
G1 X39.294 Y28.7589
G3 X39.419 Y28.8839 I0 J0.125
G3 X39.4173 Y28.9045 I-0.125 J0
G1 X38.7043 Y33.1826
G1 X38.6632 Y33.4292
G1 X37.8823 Y38.1145
G1 X37.8412 Y38.3611
G1 X37.0603 Y43.0465
G1 X37.0192 Y43.2931
G1 X36.9173 Y43.9045
G3 X36.794 Y44.0089 I-0.1233 J-0.0205
G1 X35.044 Y44.0089
G1 X35.044 Y44.3839
G3 X34.919 Y44.5089 I-0.125 J0
G1 X34.169 Y44.5089
G3 X34.044 Y44.3839 I0 J-0.125
G1 X34.044 Y44.0089
G1 X33.7322 Y44.0089
G1 X33.4822 Y44.0089
G1 X28.7322 Y44.0089
G1 X28.4822 Y44.0089
G1 X27.669 Y44.0089
G3 X27.544 Y43.8839 I0 J-0.125
G1 X27.544 Y43.1339
G3 X27.5698 Y43.0578 I0.125 J0
G1 X27.5879 Y43.0343
G1 X27.5929 Y43.0221
G1 X27.5947 Y43.0089
G1 X27.5929 Y42.9958
G1 X27.5879 Y42.9836
G1 X27.5798 Y42.9731
G1 X27.5693 Y42.965
G1 X27.5571 Y42.96
G1 X27.544 Y42.9582
G1 X27.5309 Y42.96
G1 X27.5186 Y42.965
G1 X27.4951 Y42.9831
G3 X27.419 Y43.0089 I-0.0761 J-0.0992
G1 X27.169 Y43.0089
G3 X27.0929 Y42.9831 I0 J-0.125
G1 X27.0693 Y42.965
G1 X27.0571 Y42.96
G1 X27.044 Y42.9582
G1 X27.0309 Y42.96
G1 X27.0186 Y42.965
G1 X27.0081 Y42.9731
G1 X27.0001 Y42.9836
G1 X26.995 Y42.9958
G1 X26.9933 Y43.0089
G1 X26.995 Y43.0221
G1 X27.0001 Y43.0343
G1 X27.0181 Y43.0578
G3 X27.044 Y43.1339 I-0.0992 J0.0761
G1 X27.044 Y43.8839
G3 X26.919 Y44.0089 I-0.125 J0
G1 X25.8356 Y44.0089
G1 X25.5856 Y44.0089
G1 X20.544 Y44.0089
G1 X20.544 Y44.3839
G3 X20.419 Y44.5089 I-0.125 J0
G1 X19.669 Y44.5089
G3 X19.544 Y44.3839 I0 J-0.125
G1 X19.544 Y44.0089
G1 X17.794 Y44.0089
G3 X17.6707 Y43.9045 I0 J-0.125
G1 Z-0.15 F30
G1 X17.6296 Y43.6579 F25
G1 X16.8487 Y38.9725
G1 X16.8076 Y38.7259
G1 X16.0267 Y34.0406
G1 X15.9856 Y33.794
G1 X15.2047 Y29.1086
G1 X15.1707 Y28.9045
G3 X15.169 Y28.8839 I0.1233 J-0.0205
G3 X15.171 Y28.8616 I0.125 J0
G3 X15.294 Y28.7589 I0.123 J0.0223
G1 X16.294 Y28.7589
G3 X16.4152 Y28.8536 I0 J0.125
G1 X17.2424 Y32.1622
G1 X17.303 Y32.4047
G1 X18.4551 Y37.0129
G1 X18.5157 Y37.2554
G1 X19.6677 Y41.8636
G1 X19.7284 Y42.1061
G1 X19.7666 Y42.2589
G1 X24.3591 Y42.2589
G1 X24.6091 Y42.2589
G1 X29.3591 Y42.2589
G1 X29.6091 Y42.2589
G1 X34.3591 Y42.2589
G1 X34.6091 Y42.2589
G1 X34.8214 Y42.2589
G1 X35.9219 Y37.8567
G1 X35.9826 Y37.6142
G1 X37.1346 Y33.006
G1 X37.1952 Y32.7635
G1 X38.1727 Y28.8536
G3 X38.294 Y28.7589 I0.1213 J0.0303
G1 X38.848 Y28.7589
G1 X39.098 Y28.7589
G1 X39.294 Y28.7589
G3 X39.419 Y28.8839 I0 J0.125
G3 X39.4173 Y28.9045 I-0.125 J0
G1 X38.7043 Y33.1826
G1 X38.6632 Y33.4292
G1 X37.8823 Y38.1145
G1 X37.8412 Y38.3611
G1 X37.0603 Y43.0465
G1 X37.0192 Y43.2931
G1 X36.9173 Y43.9045
G3 X36.794 Y44.0089 I-0.1233 J-0.0205
G1 X35.044 Y44.0089
G1 X35.044 Y44.3839
G3 X34.919 Y44.5089 I-0.125 J0
G1 X34.169 Y44.5089
G3 X34.044 Y44.3839 I0 J-0.125
G1 X34.044 Y44.0089
G1 X33.7322 Y44.0089
G1 X33.4822 Y44.0089
G1 X28.7322 Y44.0089
G1 X28.4822 Y44.0089
G1 X27.669 Y44.0089
G3 X27.544 Y43.8839 I0 J-0.125
G1 X27.544 Y43.1339
G3 X27.5698 Y43.0578 I0.125 J0
G1 X27.5879 Y43.0343
G1 X27.5929 Y43.0221
G1 X27.5947 Y43.0089
G1 X27.5929 Y42.9958
G1 X27.5879 Y42.9836
G1 X27.5798 Y42.9731
G1 X27.5693 Y42.965
G1 X27.5571 Y42.96
G1 X27.544 Y42.9582
G1 X27.5309 Y42.96
G1 X27.5186 Y42.965
G1 X27.4951 Y42.9831
G3 X27.419 Y43.0089 I-0.0761 J-0.0992
G1 X27.169 Y43.0089
G3 X27.0929 Y42.9831 I0 J-0.125
G1 X27.0693 Y42.965
G1 X27.0571 Y42.96
G1 X27.044 Y42.9582
G1 X27.0309 Y42.96
G1 X27.0186 Y42.965
G1 X27.0081 Y42.9731
G1 X27.0001 Y42.9836
G1 X26.995 Y42.9958
G1 X26.9933 Y43.0089
G1 X26.995 Y43.0221
G1 X27.0001 Y43.0343
G1 X27.0181 Y43.0578
G3 X27.044 Y43.1339 I-0.0992 J0.0761
G1 X27.044 Y43.8839
G3 X26.919 Y44.0089 I-0.125 J0
G1 X25.8356 Y44.0089
G1 X25.5856 Y44.0089
G1 X20.544 Y44.0089
G1 X20.544 Y44.3839
G3 X20.419 Y44.5089 I-0.125 J0
G1 X19.669 Y44.5089
G3 X19.544 Y44.3839 I0 J-0.125
G1 X19.544 Y44.0089
G1 X17.794 Y44.0089
G3 X17.6707 Y43.9045 I0 J-0.125
G1 Z-0.2 F30
G1 X17.6296 Y43.6579 F25
G1 X16.8487 Y38.9725
G1 X16.8076 Y38.7259
G1 X16.0267 Y34.0406
G1 X15.9856 Y33.794
G1 X15.2047 Y29.1086
G1 X15.1707 Y28.9045
G3 X15.169 Y28.8839 I0.1233 J-0.0205
G3 X15.171 Y28.8616 I0.125 J0
G3 X15.294 Y28.7589 I0.123 J0.0223
G1 X16.294 Y28.7589
G3 X16.4152 Y28.8536 I0 J0.125
G1 X17.2424 Y32.1622
G1 X17.303 Y32.4047
G1 X18.4551 Y37.0129
G1 X18.5157 Y37.2554
G1 X19.6677 Y41.8636
G1 X19.7284 Y42.1061
G1 X19.7666 Y42.2589
G1 X24.3591 Y42.2589
G1 X24.6091 Y42.2589
G1 X29.3591 Y42.2589
G1 X29.6091 Y42.2589
G1 X34.3591 Y42.2589
G1 X34.6091 Y42.2589
G1 X34.8214 Y42.2589
G1 X35.9219 Y37.8567
G1 X35.9826 Y37.6142
G1 X37.1346 Y33.006
G1 X37.1952 Y32.7635
G1 X38.1727 Y28.8536
G3 X38.294 Y28.7589 I0.1213 J0.0303
G1 X38.848 Y28.7589
G1 X39.098 Y28.7589
G1 X39.294 Y28.7589
G3 X39.419 Y28.8839 I0 J0.125
G3 X39.4173 Y28.9045 I-0.125 J0
G1 X38.7043 Y33.1826
G1 X38.6632 Y33.4292
G1 X37.8823 Y38.1145
G1 X37.8412 Y38.3611
G1 X37.0603 Y43.0465
G1 X37.0192 Y43.2931
G1 X36.9173 Y43.9045
G3 X36.794 Y44.0089 I-0.1233 J-0.0205
G1 X35.044 Y44.0089
G1 X35.044 Y44.3839
G3 X34.919 Y44.5089 I-0.125 J0
G1 X34.169 Y44.5089
G3 X34.044 Y44.3839 I0 J-0.125
G1 X34.044 Y44.0089
G1 X33.7322 Y44.0089
G1 X33.4822 Y44.0089
G1 X28.7322 Y44.0089
G1 X28.4822 Y44.0089
G1 X27.669 Y44.0089
G3 X27.544 Y43.8839 I0 J-0.125
G1 X27.544 Y43.1339
G3 X27.5698 Y43.0578 I0.125 J0
G1 X27.5879 Y43.0343
G1 X27.5929 Y43.0221
G1 X27.5947 Y43.0089
G1 X27.5929 Y42.9958
G1 X27.5879 Y42.9836
G1 X27.5798 Y42.9731
G1 X27.5693 Y42.965
G1 X27.5571 Y42.96
G1 X27.544 Y42.9582
G1 X27.5309 Y42.96
G1 X27.5186 Y42.965
G1 X27.4951 Y42.9831
G3 X27.419 Y43.0089 I-0.0761 J-0.0992
G1 X27.169 Y43.0089
G3 X27.0929 Y42.9831 I0 J-0.125
G1 X27.0693 Y42.965
G1 X27.0571 Y42.96
G1 X27.044 Y42.9582
G1 X27.0309 Y42.96
G1 X27.0186 Y42.965
G1 X27.0081 Y42.9731
G1 X27.0001 Y42.9836
G1 X26.995 Y42.9958
G1 X26.9933 Y43.0089
G1 X26.995 Y43.0221
G1 X27.0001 Y43.0343
G1 X27.0181 Y43.0578
G3 X27.044 Y43.1339 I-0.0992 J0.0761
G1 X27.044 Y43.8839
G3 X26.919 Y44.0089 I-0.125 J0
G1 X25.8356 Y44.0089
G1 X25.5856 Y44.0089
G1 X20.544 Y44.0089
G1 X20.544 Y44.3839
G3 X20.419 Y44.5089 I-0.125 J0
G1 X19.669 Y44.5089
G3 X19.544 Y44.3839 I0 J-0.125
G1 X19.544 Y44.0089
G1 X17.794 Y44.0089
G3 X17.6707 Y43.9045 I0 J-0.125
G1 Z-0.25 F30
G1 X17.6296 Y43.6579 F25
G1 X16.8487 Y38.9725
G1 X16.8076 Y38.7259
G1 X16.0267 Y34.0406
G1 X15.9856 Y33.794
G1 X15.2047 Y29.1086
G1 X15.1707 Y28.9045
G3 X15.169 Y28.8839 I0.1233 J-0.0205
G3 X15.171 Y28.8616 I0.125 J0
G3 X15.294 Y28.7589 I0.123 J0.0223
G1 X16.294 Y28.7589
G3 X16.4152 Y28.8536 I0 J0.125
G1 X17.2424 Y32.1622
G1 X17.303 Y32.4047
G1 X18.4551 Y37.0129
G1 X18.5157 Y37.2554
G1 X19.6677 Y41.8636
G1 X19.7284 Y42.1061
G1 X19.7666 Y42.2589
G1 X24.3591 Y42.2589
G1 X24.6091 Y42.2589
G1 X29.3591 Y42.2589
G1 X29.6091 Y42.2589
G1 X34.3591 Y42.2589
G1 X34.6091 Y42.2589
G1 X34.8214 Y42.2589
G1 X35.9219 Y37.8567
G1 X35.9826 Y37.6142
G1 X37.1346 Y33.006
G1 X37.1952 Y32.7635
G1 X38.1727 Y28.8536
G3 X38.294 Y28.7589 I0.1213 J0.0303
G1 X38.848 Y28.7589
G1 X39.098 Y28.7589
G1 X39.294 Y28.7589
G3 X39.419 Y28.8839 I0 J0.125
G3 X39.4173 Y28.9045 I-0.125 J0
G1 X38.7043 Y33.1826
G1 X38.6632 Y33.4292
G1 X37.8823 Y38.1145
G1 X37.8412 Y38.3611
G1 X37.0603 Y43.0465
G1 X37.0192 Y43.2931
G1 X36.9173 Y43.9045
G3 X36.794 Y44.0089 I-0.1233 J-0.0205
G1 X35.044 Y44.0089
G1 X35.044 Y44.3839
G3 X34.919 Y44.5089 I-0.125 J0
G1 X34.169 Y44.5089
G3 X34.044 Y44.3839 I0 J-0.125
G1 X34.044 Y44.0089
G1 X33.7322 Y44.0089
G1 X33.4822 Y44.0089
G1 X28.7322 Y44.0089
G1 X28.4822 Y44.0089
G1 X27.669 Y44.0089
G3 X27.544 Y43.8839 I0 J-0.125
G1 X27.544 Y43.1339
G3 X27.5698 Y43.0578 I0.125 J0
G1 X27.5879 Y43.0343
G1 X27.5929 Y43.0221
G1 X27.5947 Y43.0089
G1 X27.5929 Y42.9958
G1 X27.5879 Y42.9836
G1 X27.5798 Y42.9731
G1 X27.5693 Y42.965
G1 X27.5571 Y42.96
G1 X27.544 Y42.9582
G1 X27.5309 Y42.96
G1 X27.5186 Y42.965
G1 X27.4951 Y42.9831
G3 X27.419 Y43.0089 I-0.0761 J-0.0992
G1 X27.169 Y43.0089
G3 X27.0929 Y42.9831 I0 J-0.125
G1 X27.0693 Y42.965
G1 X27.0571 Y42.96
G1 X27.044 Y42.9582
G1 X27.0309 Y42.96
G1 X27.0186 Y42.965
G1 X27.0081 Y42.9731
G1 X27.0001 Y42.9836
G1 X26.995 Y42.9958
G1 X26.9933 Y43.0089
G1 X26.995 Y43.0221
G1 X27.0001 Y43.0343
G1 X27.0181 Y43.0578
G3 X27.044 Y43.1339 I-0.0992 J0.0761
G1 X27.044 Y43.8839
G3 X26.919 Y44.0089 I-0.125 J0
G1 X25.8356 Y44.0089
G1 X25.5856 Y44.0089
G1 X20.544 Y44.0089
G1 X20.544 Y44.3839
G3 X20.419 Y44.5089 I-0.125 J0
G1 X19.669 Y44.5089
G3 X19.544 Y44.3839 I0 J-0.125
G1 X19.544 Y44.0089
G1 X17.794 Y44.0089
G3 X17.6707 Y43.9045 I0 J-0.125
G1 Z-0.3 F30
G1 X17.6296 Y43.6579 F25
G1 X16.8487 Y38.9725
G1 X16.8076 Y38.7259
G1 X16.0267 Y34.0406
G1 X15.9856 Y33.794
G1 X15.2047 Y29.1086
G1 X15.1707 Y28.9045
G3 X15.169 Y28.8839 I0.1233 J-0.0205
G3 X15.171 Y28.8616 I0.125 J0
G3 X15.294 Y28.7589 I0.123 J0.0223
G1 X16.294 Y28.7589
G3 X16.4152 Y28.8536 I0 J0.125
G1 X17.2424 Y32.1622
G1 X17.303 Y32.4047
G1 X18.4551 Y37.0129
G1 X18.5157 Y37.2554
G1 X19.6677 Y41.8636
G1 X19.7284 Y42.1061
G1 X19.7666 Y42.2589
G1 X24.3591 Y42.2589
G1 X24.6091 Y42.2589
G1 X29.3591 Y42.2589
G1 X29.6091 Y42.2589
G1 X34.3591 Y42.2589
G1 X34.6091 Y42.2589
G1 X34.8214 Y42.2589
G1 X35.9219 Y37.8567
G1 X35.9826 Y37.6142
G1 X37.1346 Y33.006
G1 X37.1952 Y32.7635
G1 X38.1727 Y28.8536
G3 X38.294 Y28.7589 I0.1213 J0.0303
G1 X38.848 Y28.7589
G1 X39.098 Y28.7589
G1 X39.294 Y28.7589
G3 X39.419 Y28.8839 I0 J0.125
G3 X39.4173 Y28.9045 I-0.125 J0
G1 X38.7043 Y33.1826
G1 X38.6632 Y33.4292
G1 X37.8823 Y38.1145
G1 X37.8412 Y38.3611
G1 X37.0603 Y43.0465
G1 X37.0192 Y43.2931
G1 X36.9173 Y43.9045
G3 X36.794 Y44.0089 I-0.1233 J-0.0205
G1 X35.044 Y44.0089
G1 X35.044 Y44.3839
G3 X34.919 Y44.5089 I-0.125 J0
G1 X34.169 Y44.5089
G3 X34.044 Y44.3839 I0 J-0.125
G1 X34.044 Y44.0089
G1 X33.7322 Y44.0089
G1 X33.4822 Y44.0089
G1 X28.7322 Y44.0089
G1 X28.4822 Y44.0089
G1 X27.669 Y44.0089
G3 X27.544 Y43.8839 I0 J-0.125
G1 X27.544 Y43.1339
G3 X27.5698 Y43.0578 I0.125 J0
G1 X27.5879 Y43.0343
G1 X27.5929 Y43.0221
G1 X27.5947 Y43.0089
G1 X27.5929 Y42.9958
G1 X27.5879 Y42.9836
G1 X27.5798 Y42.9731
G1 X27.5693 Y42.965
G1 X27.5571 Y42.96
G1 X27.544 Y42.9582
G1 X27.5309 Y42.96
G1 X27.5186 Y42.965
G1 X27.4951 Y42.9831
G3 X27.419 Y43.0089 I-0.0761 J-0.0992
G1 X27.169 Y43.0089
G3 X27.0929 Y42.9831 I0 J-0.125
G1 X27.0693 Y42.965
G1 X27.0571 Y42.96
G1 X27.044 Y42.9582
G1 X27.0309 Y42.96
G1 X27.0186 Y42.965
G1 X27.0081 Y42.9731
G1 X27.0001 Y42.9836
G1 X26.995 Y42.9958
G1 X26.9933 Y43.0089
G1 X26.995 Y43.0221
G1 X27.0001 Y43.0343
G1 X27.0181 Y43.0578
G3 X27.044 Y43.1339 I-0.0992 J0.0761
G1 X27.044 Y43.8839
G3 X26.919 Y44.0089 I-0.125 J0
G1 X25.8356 Y44.0089
G1 X25.5856 Y44.0089
G1 X20.544 Y44.0089
G1 X20.544 Y44.3839
G3 X20.419 Y44.5089 I-0.125 J0
G1 X19.669 Y44.5089
G3 X19.544 Y44.3839 I0 J-0.125
G1 X19.544 Y44.0089
G1 X17.794 Y44.0089
G3 X17.6707 Y43.9045 I0 J-0.125
G1 Z-0.35 F30
G1 X17.6296 Y43.6579 F25
G1 X16.8487 Y38.9725
G1 X16.8076 Y38.7259
G1 X16.0267 Y34.0406
G1 X15.9856 Y33.794
G1 X15.2047 Y29.1086
G1 X15.1707 Y28.9045
G3 X15.169 Y28.8839 I0.1233 J-0.0205
G3 X15.171 Y28.8616 I0.125 J0
G3 X15.294 Y28.7589 I0.123 J0.0223
G1 X16.294 Y28.7589
G3 X16.4152 Y28.8536 I0 J0.125
G1 X17.2424 Y32.1622
G1 X17.303 Y32.4047
G1 X18.4551 Y37.0129
G1 X18.5157 Y37.2554
G1 X19.6677 Y41.8636
G1 X19.7284 Y42.1061
G1 X19.7666 Y42.2589
G1 X24.3591 Y42.2589
G1 X24.6091 Y42.2589
G1 X29.3591 Y42.2589
G1 X29.6091 Y42.2589
G1 X34.3591 Y42.2589
G1 X34.6091 Y42.2589
G1 X34.8214 Y42.2589
G1 X35.9219 Y37.8567
G1 X35.9826 Y37.6142
G1 X37.1346 Y33.006
G1 X37.1952 Y32.7635
G1 X38.1727 Y28.8536
G3 X38.294 Y28.7589 I0.1213 J0.0303
G1 X38.848 Y28.7589
G1 X39.098 Y28.7589
G1 X39.294 Y28.7589
G3 X39.419 Y28.8839 I0 J0.125
G3 X39.4173 Y28.9045 I-0.125 J0
G1 X38.7043 Y33.1826
G1 X38.6632 Y33.4292
G1 X37.8823 Y38.1145
G1 X37.8412 Y38.3611
G1 X37.0603 Y43.0465
G1 X37.0192 Y43.2931
G1 X36.9173 Y43.9045
G3 X36.794 Y44.0089 I-0.1233 J-0.0205
G1 X35.044 Y44.0089
G1 X35.044 Y44.3839
G3 X34.919 Y44.5089 I-0.125 J0
G1 X34.169 Y44.5089
G3 X34.044 Y44.3839 I0 J-0.125
G1 X34.044 Y44.0089
G1 X33.7322 Y44.0089
G1 X33.4822 Y44.0089
G1 X28.7322 Y44.0089
G1 X28.4822 Y44.0089
G1 X27.669 Y44.0089
G3 X27.544 Y43.8839 I0 J-0.125
G1 X27.544 Y43.1339
G3 X27.5698 Y43.0578 I0.125 J0
G1 X27.5879 Y43.0343
G1 X27.5929 Y43.0221
G1 X27.5947 Y43.0089
G1 X27.5929 Y42.9958
G1 X27.5879 Y42.9836
G1 X27.5798 Y42.9731
G1 X27.5693 Y42.965
G1 X27.5571 Y42.96
G1 X27.544 Y42.9582
G1 X27.5309 Y42.96
G1 X27.5186 Y42.965
G1 X27.4951 Y42.9831
G3 X27.419 Y43.0089 I-0.0761 J-0.0992
G1 X27.169 Y43.0089
G3 X27.0929 Y42.9831 I0 J-0.125
G1 X27.0693 Y42.965
G1 X27.0571 Y42.96
G1 X27.044 Y42.9582
G1 X27.0309 Y42.96
G1 X27.0186 Y42.965
G1 X27.0081 Y42.9731
G1 X27.0001 Y42.9836
G1 X26.995 Y42.9958
G1 X26.9933 Y43.0089
G1 X26.995 Y43.0221
G1 X27.0001 Y43.0343
G1 X27.0181 Y43.0578
G3 X27.044 Y43.1339 I-0.0992 J0.0761
G1 X27.044 Y43.8839
G3 X26.919 Y44.0089 I-0.125 J0
G1 X25.8356 Y44.0089
G1 X25.5856 Y44.0089
G1 X20.544 Y44.0089
G1 X20.544 Y44.3839
G3 X20.419 Y44.5089 I-0.125 J0
G1 X19.669 Y44.5089
G3 X19.544 Y44.3839 I0 J-0.125
G1 X19.544 Y44.0089
G1 X17.794 Y44.0089
G3 X17.6707 Y43.9045 I0 J-0.125
G1 Z-0.4 F30
G1 X17.6296 Y43.6579 F25
G1 X16.8487 Y38.9725
G1 X16.8076 Y38.7259
G1 X16.0267 Y34.0406
G1 X15.9856 Y33.794
G1 X15.2047 Y29.1086
G1 X15.1707 Y28.9045
G3 X15.169 Y28.8839 I0.1233 J-0.0205
G3 X15.171 Y28.8616 I0.125 J0
G3 X15.294 Y28.7589 I0.123 J0.0223
G1 X16.294 Y28.7589
G3 X16.4152 Y28.8536 I0 J0.125
G1 X17.2424 Y32.1622
G1 X17.303 Y32.4047
G1 X18.4551 Y37.0129
G1 X18.5157 Y37.2554
G1 X19.6677 Y41.8636
G1 X19.7284 Y42.1061
G1 X19.7666 Y42.2589
G1 X24.3591 Y42.2589
G1 X24.6091 Y42.2589
G1 X29.3591 Y42.2589
G1 X29.6091 Y42.2589
G1 X34.3591 Y42.2589
G1 X34.6091 Y42.2589
G1 X34.8214 Y42.2589
G1 X35.9219 Y37.8567
G1 X35.9826 Y37.6142
G1 X37.1346 Y33.006
G1 X37.1952 Y32.7635
G1 X38.1727 Y28.8536
G3 X38.294 Y28.7589 I0.1213 J0.0303
G1 X38.848 Y28.7589
G1 X39.098 Y28.7589
G1 X39.294 Y28.7589
G3 X39.419 Y28.8839 I0 J0.125
G3 X39.4173 Y28.9045 I-0.125 J0
G1 X38.7043 Y33.1826
G1 X38.6632 Y33.4292
G1 X37.8823 Y38.1145
G1 X37.8412 Y38.3611
G1 X37.0603 Y43.0465
G1 X37.0192 Y43.2931
G1 X36.9173 Y43.9045
G3 X36.794 Y44.0089 I-0.1233 J-0.0205
G1 X35.044 Y44.0089
G1 X35.044 Y44.3839
G3 X34.919 Y44.5089 I-0.125 J0
G1 X34.169 Y44.5089
G3 X34.044 Y44.3839 I0 J-0.125
G1 X34.044 Y44.0089
G1 X33.7322 Y44.0089
G1 X33.4822 Y44.0089
G1 X28.7322 Y44.0089
G1 X28.4822 Y44.0089
G1 X27.669 Y44.0089
G3 X27.544 Y43.8839 I0 J-0.125
G1 X27.544 Y43.1339
G3 X27.5698 Y43.0578 I0.125 J0
G1 X27.5879 Y43.0343
G1 X27.5929 Y43.0221
G1 X27.5947 Y43.0089
G1 X27.5929 Y42.9958
G1 X27.5879 Y42.9836
G1 X27.5798 Y42.9731
G1 X27.5693 Y42.965
G1 X27.5571 Y42.96
G1 X27.544 Y42.9582
G1 X27.5309 Y42.96
G1 X27.5186 Y42.965
G1 X27.4951 Y42.9831
G3 X27.419 Y43.0089 I-0.0761 J-0.0992
G1 X27.169 Y43.0089
G3 X27.0929 Y42.9831 I0 J-0.125
G1 X27.0693 Y42.965
G1 X27.0571 Y42.96
G1 X27.044 Y42.9582
G1 X27.0309 Y42.96
G1 X27.0186 Y42.965
G1 X27.0081 Y42.9731
G1 X27.0001 Y42.9836
G1 X26.995 Y42.9958
G1 X26.9933 Y43.0089
G1 X26.995 Y43.0221
G1 X27.0001 Y43.0343
G1 X27.0181 Y43.0578
G3 X27.044 Y43.1339 I-0.0992 J0.0761
G1 X27.044 Y43.8839
G3 X26.919 Y44.0089 I-0.125 J0
G1 X25.8356 Y44.0089
G1 X25.5856 Y44.0089
G1 X20.544 Y44.0089
G1 X20.544 Y44.3839
G3 X20.419 Y44.5089 I-0.125 J0
G1 X19.669 Y44.5089
G3 X19.544 Y44.3839 I0 J-0.125
G1 X19.544 Y44.0089
G1 X17.794 Y44.0089
G3 X17.6707 Y43.9045 I0 J-0.125
G1 Z-0.45 F30
G1 X17.6296 Y43.6579 F25
G1 X16.8487 Y38.9725
G1 X16.8076 Y38.7259
G1 X16.0267 Y34.0406
G1 X15.9856 Y33.794
G1 X15.2047 Y29.1086
G1 X15.1707 Y28.9045
G3 X15.169 Y28.8839 I0.1233 J-0.0205
G3 X15.171 Y28.8616 I0.125 J0
G3 X15.294 Y28.7589 I0.123 J0.0223
G1 X16.294 Y28.7589
G3 X16.4152 Y28.8536 I0 J0.125
G1 X17.2424 Y32.1622
G1 X17.303 Y32.4047
G1 X18.4551 Y37.0129
G1 X18.5157 Y37.2554
G1 X19.6677 Y41.8636
G1 X19.7284 Y42.1061
G1 X19.7666 Y42.2589
G1 X24.3591 Y42.2589
G1 X24.6091 Y42.2589
G1 X29.3591 Y42.2589
G1 X29.6091 Y42.2589
G1 X34.3591 Y42.2589
G1 X34.6091 Y42.2589
G1 X34.8214 Y42.2589
G1 X35.9219 Y37.8567
G1 X35.9826 Y37.6142
G1 X37.1346 Y33.006
G1 X37.1952 Y32.7635
G1 X38.1727 Y28.8536
G3 X38.294 Y28.7589 I0.1213 J0.0303
G1 X38.848 Y28.7589
G1 X39.098 Y28.7589
G1 X39.294 Y28.7589
G3 X39.419 Y28.8839 I0 J0.125
G3 X39.4173 Y28.9045 I-0.125 J0
G1 X38.7043 Y33.1826
G1 X38.6632 Y33.4292
G1 X37.8823 Y38.1145
G1 X37.8412 Y38.3611
G1 X37.0603 Y43.0465
G1 X37.0192 Y43.2931
G1 X36.9173 Y43.9045
G3 X36.794 Y44.0089 I-0.1233 J-0.0205
G1 X35.044 Y44.0089
G1 X35.044 Y44.3839
G3 X34.919 Y44.5089 I-0.125 J0
G1 X34.169 Y44.5089
G3 X34.044 Y44.3839 I0 J-0.125
G1 X34.044 Y44.0089
G1 X33.7322 Y44.0089
G1 X33.4822 Y44.0089
G1 X28.7322 Y44.0089
G1 X28.4822 Y44.0089
G1 X27.669 Y44.0089
G3 X27.544 Y43.8839 I0 J-0.125
G1 X27.544 Y43.1339
G3 X27.5698 Y43.0578 I0.125 J0
G1 X27.5879 Y43.0343
G1 X27.5929 Y43.0221
G1 X27.5947 Y43.0089
G1 X27.5929 Y42.9958
G1 X27.5879 Y42.9836
G1 X27.5798 Y42.9731
G1 X27.5693 Y42.965
G1 X27.5571 Y42.96
G1 X27.544 Y42.9582
G1 X27.5309 Y42.96
G1 X27.5186 Y42.965
G1 X27.4951 Y42.9831
G3 X27.419 Y43.0089 I-0.0761 J-0.0992
G1 X27.169 Y43.0089
G3 X27.0929 Y42.9831 I0 J-0.125
G1 X27.0693 Y42.965
G1 X27.0571 Y42.96
G1 X27.044 Y42.9582
G1 X27.0309 Y42.96
G1 X27.0186 Y42.965
G1 X27.0081 Y42.9731
G1 X27.0001 Y42.9836
G1 X26.995 Y42.9958
G1 X26.9933 Y43.0089
G1 X26.995 Y43.0221
G1 X27.0001 Y43.0343
G1 X27.0181 Y43.0578
G3 X27.044 Y43.1339 I-0.0992 J0.0761
G1 X27.044 Y43.8839
G3 X26.919 Y44.0089 I-0.125 J0
G1 X25.8356 Y44.0089
G1 X25.5856 Y44.0089
G1 X20.544 Y44.0089
G1 X20.544 Y44.3839
G3 X20.419 Y44.5089 I-0.125 J0
G1 X19.669 Y44.5089
G3 X19.544 Y44.3839 I0 J-0.125
G1 X19.544 Y44.0089
G1 X17.794 Y44.0089
G3 X17.6707 Y43.9045 I0 J-0.125
G1 Z-0.5 F30
G1 X17.6296 Y43.6579 F25
G1 X16.8487 Y38.9725
G1 X16.8076 Y38.7259
G1 X16.0267 Y34.0406
G1 X15.9856 Y33.794
G1 X15.2047 Y29.1086
G1 X15.1707 Y28.9045
G3 X15.169 Y28.8839 I0.1233 J-0.0205
G3 X15.171 Y28.8616 I0.125 J0
G3 X15.294 Y28.7589 I0.123 J0.0223
G1 X16.294 Y28.7589
G3 X16.4152 Y28.8536 I0 J0.125
G1 X17.2424 Y32.1622
G1 X17.303 Y32.4047
G1 X18.4551 Y37.0129
G1 X18.5157 Y37.2554
G1 X19.6677 Y41.8636
G1 X19.7284 Y42.1061
G1 X19.7666 Y42.2589
G1 X24.3591 Y42.2589
G1 X24.6091 Y42.2589
G1 X29.3591 Y42.2589
G1 X29.6091 Y42.2589
G1 X34.3591 Y42.2589
G1 X34.6091 Y42.2589
G1 X34.8214 Y42.2589
G1 X35.9219 Y37.8567
G1 X35.9826 Y37.6142
G1 X37.1346 Y33.006
G1 X37.1952 Y32.7635
G1 X38.1727 Y28.8536
G3 X38.294 Y28.7589 I0.1213 J0.0303
G1 X38.848 Y28.7589
G1 X39.098 Y28.7589
G1 X39.294 Y28.7589
G3 X39.419 Y28.8839 I0 J0.125
G3 X39.4173 Y28.9045 I-0.125 J0
G1 X38.7043 Y33.1826
G1 X38.6632 Y33.4292
G1 X37.8823 Y38.1145
G1 X37.8412 Y38.3611
G1 X37.0603 Y43.0465
G1 X37.0192 Y43.2931
G1 X36.9173 Y43.9045
G3 X36.794 Y44.0089 I-0.1233 J-0.0205
G1 X35.044 Y44.0089
G1 X35.044 Y44.3839
G3 X34.919 Y44.5089 I-0.125 J0
G1 X34.169 Y44.5089
G3 X34.044 Y44.3839 I0 J-0.125
G1 X34.044 Y44.0089
G1 X33.7322 Y44.0089
G1 X33.4822 Y44.0089
G1 X28.7322 Y44.0089
G1 X28.4822 Y44.0089
G1 X27.669 Y44.0089
G3 X27.544 Y43.8839 I0 J-0.125
G1 X27.544 Y43.1339
G3 X27.5698 Y43.0578 I0.125 J0
G1 X27.5879 Y43.0343
G1 X27.5929 Y43.0221
G1 X27.5947 Y43.0089
G1 X27.5929 Y42.9958
G1 X27.5879 Y42.9836
G1 X27.5798 Y42.9731
G1 X27.5693 Y42.965
G1 X27.5571 Y42.96
G1 X27.544 Y42.9582
G1 X27.5309 Y42.96
G1 X27.5186 Y42.965
G1 X27.4951 Y42.9831
G3 X27.419 Y43.0089 I-0.0761 J-0.0992
G1 X27.169 Y43.0089
G3 X27.0929 Y42.9831 I0 J-0.125
G1 X27.0693 Y42.965
G1 X27.0571 Y42.96
G1 X27.044 Y42.9582
G1 X27.0309 Y42.96
G1 X27.0186 Y42.965
G1 X27.0081 Y42.9731
G1 X27.0001 Y42.9836
G1 X26.995 Y42.9958
G1 X26.9933 Y43.0089
G1 X26.995 Y43.0221
G1 X27.0001 Y43.0343
G1 X27.0181 Y43.0578
G3 X27.044 Y43.1339 I-0.0992 J0.0761
G1 X27.044 Y43.8839
G3 X26.919 Y44.0089 I-0.125 J0
G1 X25.8356 Y44.0089
G1 X25.5856 Y44.0089
G1 X20.544 Y44.0089
G1 X20.544 Y44.3839
G3 X20.419 Y44.5089 I-0.125 J0
G1 X19.669 Y44.5089
G3 X19.544 Y44.3839 I0 J-0.125
G1 X19.544 Y44.0089
G1 X17.794 Y44.0089
G3 X17.6707 Y43.9045 I0 J-0.125
G1 Z-0.55 F30
G1 Z-0.5 F30
G1 X17.6296 Y43.6579 F25
G1 Z-0.55 F30
G1 X16.8487 Y38.9725 F25
G1 Z-0.5 F30
G1 X16.8076 Y38.7259 F25
G1 Z-0.55 F30
G1 X16.0267 Y34.0406 F25
G1 Z-0.5 F30
G1 X15.9856 Y33.794 F25
G1 Z-0.55 F30
G1 X15.2047 Y29.1086 F25
G1 Z-0.5 F30
G1 X15.1707 Y28.9045 F25
G3 X15.169 Y28.8839 I0.1233 J-0.0205
G3 X15.171 Y28.8616 I0.125 J0
G1 Z-0.55 F30
G3 X15.294 Y28.7589 I0.123 J0.0223 F25
G1 X16.294 Y28.7589
G3 X16.4152 Y28.8536 I0 J0.125
G1 X17.2424 Y32.1622
G1 Z-0.5 F30
G1 X17.303 Y32.4047 F25
G1 Z-0.55 F30
G1 X18.4551 Y37.0129 F25
G1 Z-0.5 F30
G1 X18.5157 Y37.2554 F25
G1 Z-0.55 F30
G1 X19.6677 Y41.8636 F25
G1 Z-0.5 F30
G1 X19.7284 Y42.1061 F25
G1 Z-0.55 F30
G1 X19.7666 Y42.2589 F25
G1 X24.3591 Y42.2589
G1 Z-0.5 F30
G1 X24.6091 Y42.2589 F25
G1 Z-0.55 F30
G1 X29.3591 Y42.2589 F25
G1 Z-0.5 F30
G1 X29.6091 Y42.2589 F25
G1 Z-0.55 F30
G1 X34.3591 Y42.2589 F25
G1 Z-0.5 F30
G1 X34.6091 Y42.2589 F25
G1 Z-0.55 F30
G1 X34.8214 Y42.2589 F25
G1 X35.9219 Y37.8567
G1 Z-0.5 F30
G1 X35.9826 Y37.6142 F25
G1 Z-0.55 F30
G1 X37.1346 Y33.006 F25
G1 Z-0.5 F30
G1 X37.1952 Y32.7635 F25
G1 Z-0.55 F30
G1 X38.1727 Y28.8536 F25
G3 X38.294 Y28.7589 I0.1213 J0.0303
G1 X38.848 Y28.7589
G1 Z-0.5 F30
G1 X39.098 Y28.7589 F25
G1 Z-0.55 F30
G1 X39.294 Y28.7589 F25
G3 X39.419 Y28.8839 I0 J0.125
G3 X39.4173 Y28.9045 I-0.125 J0
G1 X38.7043 Y33.1826
G1 Z-0.5 F30
G1 X38.6632 Y33.4292 F25
G1 Z-0.55 F30
G1 X37.8823 Y38.1145 F25
G1 Z-0.5 F30
G1 X37.8412 Y38.3611 F25
G1 Z-0.55 F30
G1 X37.0603 Y43.0465 F25
G1 Z-0.5 F30
G1 X37.0192 Y43.2931 F25
G1 Z-0.55 F30
G1 X36.9173 Y43.9045 F25
G3 X36.794 Y44.0089 I-0.1233 J-0.0205
G1 X35.044 Y44.0089
G1 X35.044 Y44.3839
G3 X34.919 Y44.5089 I-0.125 J0
G1 X34.169 Y44.5089
G3 X34.044 Y44.3839 I0 J-0.125
G1 X34.044 Y44.0089
G1 X33.7322 Y44.0089
G1 Z-0.5 F30
G1 X33.4822 Y44.0089 F25
G1 Z-0.55 F30
G1 X28.7322 Y44.0089 F25
G1 Z-0.5 F30
G1 X28.4822 Y44.0089 F25
G1 Z-0.55 F30
G1 X27.669 Y44.0089 F25
G3 X27.544 Y43.8839 I0 J-0.125
G1 X27.544 Y43.1339
G3 X27.5698 Y43.0578 I0.125 J0
G1 X27.5879 Y43.0343
G1 X27.5929 Y43.0221
G1 X27.5947 Y43.0089
G1 X27.5929 Y42.9958
G1 X27.5879 Y42.9836
G1 X27.5798 Y42.9731
G1 X27.5693 Y42.965
G1 X27.5571 Y42.96
G1 X27.544 Y42.9582
G1 X27.5309 Y42.96
G1 X27.5186 Y42.965
G1 X27.4951 Y42.9831
G3 X27.419 Y43.0089 I-0.0761 J-0.0992
G1 X27.169 Y43.0089
G3 X27.0929 Y42.9831 I0 J-0.125
G1 X27.0693 Y42.965
G1 X27.0571 Y42.96
G1 X27.044 Y42.9582
G1 X27.0309 Y42.96
G1 X27.0186 Y42.965
G1 X27.0081 Y42.9731
G1 X27.0001 Y42.9836
G1 X26.995 Y42.9958
G1 X26.9933 Y43.0089
G1 X26.995 Y43.0221
G1 X27.0001 Y43.0343
G1 X27.0181 Y43.0578
G3 X27.044 Y43.1339 I-0.0992 J0.0761
G1 X27.044 Y43.8839
G3 X26.919 Y44.0089 I-0.125 J0
G1 X25.8356 Y44.0089
G1 Z-0.5 F30
G1 X25.5856 Y44.0089 F25
G1 Z-0.55 F30
G1 X20.544 Y44.0089 F25
G1 X20.544 Y44.3839
G3 X20.419 Y44.5089 I-0.125 J0
G1 X19.669 Y44.5089
G3 X19.544 Y44.3839 I0 J-0.125
G1 X19.544 Y44.0089
G1 X17.794 Y44.0089
G3 X17.6707 Y43.9045 I0 J-0.125
G1 Z-0.6 F30
G1 Z-0.5 F30
G1 X17.6296 Y43.6579 F25
G1 Z-0.6 F30
G1 X16.8487 Y38.9725 F25
G1 Z-0.5 F30
G1 X16.8076 Y38.7259 F25
G1 Z-0.6 F30
G1 X16.0267 Y34.0406 F25
G1 Z-0.5 F30
G1 X15.9856 Y33.794 F25
G1 Z-0.6 F30
G1 X15.2047 Y29.1086 F25
G1 Z-0.5 F30
G1 X15.1707 Y28.9045 F25
G3 X15.169 Y28.8839 I0.1233 J-0.0205
G3 X15.171 Y28.8616 I0.125 J0
G1 Z-0.6 F30
G3 X15.294 Y28.7589 I0.123 J0.0223 F25
G1 X16.294 Y28.7589
G3 X16.4152 Y28.8536 I0 J0.125
G1 X17.2424 Y32.1622
G1 Z-0.5 F30
G1 X17.303 Y32.4047 F25
G1 Z-0.6 F30
G1 X18.4551 Y37.0129 F25
G1 Z-0.5 F30
G1 X18.5157 Y37.2554 F25
G1 Z-0.6 F30
G1 X19.6677 Y41.8636 F25
G1 Z-0.5 F30
G1 X19.7284 Y42.1061 F25
G1 Z-0.6 F30
G1 X19.7666 Y42.2589 F25
G1 X24.3591 Y42.2589
G1 Z-0.5 F30
G1 X24.6091 Y42.2589 F25
G1 Z-0.6 F30
G1 X29.3591 Y42.2589 F25
G1 Z-0.5 F30
G1 X29.6091 Y42.2589 F25
G1 Z-0.6 F30
G1 X34.3591 Y42.2589 F25
G1 Z-0.5 F30
G1 X34.6091 Y42.2589 F25
G1 Z-0.6 F30
G1 X34.8214 Y42.2589 F25
G1 X35.9219 Y37.8567
G1 Z-0.5 F30
G1 X35.9826 Y37.6142 F25
G1 Z-0.6 F30
G1 X37.1346 Y33.006 F25
G1 Z-0.5 F30
G1 X37.1952 Y32.7635 F25
G1 Z-0.6 F30
G1 X38.1727 Y28.8536 F25
G3 X38.294 Y28.7589 I0.1213 J0.0303
G1 X38.848 Y28.7589
G1 Z-0.5 F30
G1 X39.098 Y28.7589 F25
G1 Z-0.6 F30
G1 X39.294 Y28.7589 F25
G3 X39.419 Y28.8839 I0 J0.125
G3 X39.4173 Y28.9045 I-0.125 J0
G1 X38.7043 Y33.1826
G1 Z-0.5 F30
G1 X38.6632 Y33.4292 F25
G1 Z-0.6 F30
G1 X37.8823 Y38.1145 F25
G1 Z-0.5 F30
G1 X37.8412 Y38.3611 F25
G1 Z-0.6 F30
G1 X37.0603 Y43.0465 F25
G1 Z-0.5 F30
G1 X37.0192 Y43.2931 F25
G1 Z-0.6 F30
G1 X36.9173 Y43.9045 F25
G3 X36.794 Y44.0089 I-0.1233 J-0.0205
G1 X35.044 Y44.0089
G1 X35.044 Y44.3839
G3 X34.919 Y44.5089 I-0.125 J0
G1 X34.169 Y44.5089
G3 X34.044 Y44.3839 I0 J-0.125
G1 X34.044 Y44.0089
G1 X33.7322 Y44.0089
G1 Z-0.5 F30
G1 X33.4822 Y44.0089 F25
G1 Z-0.6 F30
G1 X28.7322 Y44.0089 F25
G1 Z-0.5 F30
G1 X28.4822 Y44.0089 F25
G1 Z-0.6 F30
G1 X27.669 Y44.0089 F25
G3 X27.544 Y43.8839 I0 J-0.125
G1 X27.544 Y43.1339
G3 X27.5698 Y43.0578 I0.125 J0
G1 X27.5879 Y43.0343
G1 X27.5929 Y43.0221
G1 X27.5947 Y43.0089
G1 X27.5929 Y42.9958
G1 X27.5879 Y42.9836
G1 X27.5798 Y42.9731
G1 X27.5693 Y42.965
G1 X27.5571 Y42.96
G1 X27.544 Y42.9582
G1 X27.5309 Y42.96
G1 X27.5186 Y42.965
G1 X27.4951 Y42.9831
G3 X27.419 Y43.0089 I-0.0761 J-0.0992
G1 X27.169 Y43.0089
G3 X27.0929 Y42.9831 I0 J-0.125
G1 X27.0693 Y42.965
G1 X27.0571 Y42.96
G1 X27.044 Y42.9582
G1 X27.0309 Y42.96
G1 X27.0186 Y42.965
G1 X27.0081 Y42.9731
G1 X27.0001 Y42.9836
G1 X26.995 Y42.9958
G1 X26.9933 Y43.0089
G1 X26.995 Y43.0221
G1 X27.0001 Y43.0343
G1 X27.0181 Y43.0578
G3 X27.044 Y43.1339 I-0.0992 J0.0761
G1 X27.044 Y43.8839
G3 X26.919 Y44.0089 I-0.125 J0
G1 X25.8356 Y44.0089
G1 Z-0.5 F30
G1 X25.5856 Y44.0089 F25
G1 Z-0.6 F30
G1 X20.544 Y44.0089 F25
G1 X20.544 Y44.3839
G3 X20.419 Y44.5089 I-0.125 J0
G1 X19.669 Y44.5089
G3 X19.544 Y44.3839 I0 J-0.125
G1 X19.544 Y44.0089
G1 X17.794 Y44.0089
G3 X17.6707 Y43.9045 I0 J-0.125
G1 Z-0.65 F30
G1 Z-0.5 F30
G1 X17.6296 Y43.6579 F25
G1 Z-0.65 F30
G1 X16.8487 Y38.9725 F25
G1 Z-0.5 F30
G1 X16.8076 Y38.7259 F25
G1 Z-0.65 F30
G1 X16.0267 Y34.0406 F25
G1 Z-0.5 F30
G1 X15.9856 Y33.794 F25
G1 Z-0.65 F30
G1 X15.2047 Y29.1086 F25
G1 Z-0.5 F30
G1 X15.1707 Y28.9045 F25
G3 X15.169 Y28.8839 I0.1233 J-0.0205
G3 X15.171 Y28.8616 I0.125 J0
G1 Z-0.65 F30
G3 X15.294 Y28.7589 I0.123 J0.0223 F25
G1 X16.294 Y28.7589
G3 X16.4152 Y28.8536 I0 J0.125
G1 X17.2424 Y32.1622
G1 Z-0.5 F30
G1 X17.303 Y32.4047 F25
G1 Z-0.65 F30
G1 X18.4551 Y37.0129 F25
G1 Z-0.5 F30
G1 X18.5157 Y37.2554 F25
G1 Z-0.65 F30
G1 X19.6677 Y41.8636 F25
G1 Z-0.5 F30
G1 X19.7284 Y42.1061 F25
G1 Z-0.65 F30
G1 X19.7666 Y42.2589 F25
G1 X24.3591 Y42.2589
G1 Z-0.5 F30
G1 X24.6091 Y42.2589 F25
G1 Z-0.65 F30
G1 X29.3591 Y42.2589 F25
G1 Z-0.5 F30
G1 X29.6091 Y42.2589 F25
